DeepRoboticsLab/Lite3_rl_deploy/python_package/examples/lite3_data.csv
timestamp,roll,pitch,yaw,wx,wy,wz,ax,ay,az,q0,q1,q2,q3,q4,q5,q6,q7,q8,q9,q10,q11,dq0,dq1,dq2,dq3,dq4,dq5,dq6,dq7,dq8,dq9,dq10,dq11,tau0,tau1,tau2,tau3,tau4,tau5,tau6,tau7,tau8,tau9,tau10,tau11
186.713,-0.00619596,-0.147703,-0.0972698,-0.00629732,-0.0197757,0.002866,1.4177,-0.0728068,9.31625,-0.0785121,-0.69865,1.69341,0.0810496,-0.711321,1.68581,-0.156048,-0.684902,1.89825,0.15806,-0.689493,1.88752,0.0475851,0.00817535,-0.0935887,-0.0469372,-0.00217057,-0.101603,0.0156314,0.0406044,-0.0892526,-0.00646348,0.0446839,-0.109812,0,0,0,0,0,0,0,0,0,0,0,0
186.714,-0.00620266,-0.147723,-0.0972669,-0.00626942,-0.019845,0.00277249,1.41788,-0.0730386,9.31488,-0.0784648,-0.698643,1.69331,0.081003,-0.711324,1.68571,-0.156032,-0.684862,1.89816,0.158053,-0.689449,1.88742,0.0472271,0.00734691,-0.0915364,-0.0466588,-0.00284486,-0.0994895,0.0154008,0.0397416,-0.0870747,-0.00619827,0.0439505,-0.107641,0,0,0,0,0,0,0,0,0,0,0,0
186.715,-0.00620932,-0.147743,-0.097264,-0.0062414,-0.0199129,0.00267907,1.41804,-0.0732732,9.31354,-0.078418,-0.698637,1.69323,0.0809566,-0.711328,1.68561,-0.156017,-0.684823,1.89808,0.158047,-0.689406,1.88731,0.0468642,0.00652286,-0.08948,-0.0463756,-0.00351455,-0.0973718,0.0151691,0.0388784,-0.0848915,-0.00593299,0.0432159,-0.105464,0,0,0,0,0,0,0,0,0,0,0,0
186.716,-0.00621593,-0.147763,-0.0972613,-0.00621316,-0.0199787,0.00258596,1.41815,-0.0735125,9.31227,-0.0783715,-0.698631,1.69314,0.0809105,-0.711332,1.68552,-0.156002,-0.684785,1.898,0.158042,-0.689364,1.88721,0.0464937,0.00570881,-0.0874234,-0.046085,-0.00417487,-0.0952532,0.0149363,0.038016,-0.0827042,-0.00566776,0.0424808,-0.10328,0,0,0,0,0,0,0,0,0,0,0,0
186.717,-0.00622251,-0.147783,-0.0972587,-0.00618458,-0.0200418,0.00249353,1.4182,-0.0737585,9.31113,-0.0783254,-0.698626,1.69305,0.0808647,-0.711337,1.68543,-0.155988,-0.684748,1.89792,0.158036,-0.689322,1.88711,0.0461124,0.00491286,-0.085372,-0.0457833,-0.00481882,-0.0931386,0.0147025,0.0371563,-0.0805144,-0.00540272,0.0417464,-0.101092,0,0,0,0,0,0,0,0,0,0,0,0
186.718,-0.00622904,-0.147803,-0.0972561,-0.00615553,-0.0201016,0.00240209,1.41817,-0.0740099,9.3101,-0.0782797,-0.698622,1.69297,0.0808193,-0.711342,1.68534,-0.155973,-0.684712,1.89784,0.158031,-0.689281,1.88701,0.0457173,0.00414163,-0.0833303,-0.0454674,-0.00544071,-0.0910323,0.0144677,0.036301,-0.0783239,-0.00513802,0.0410137,-0.0989006,0,0,0,0,0,0,0,0,0,0,0,0
186.718,-0.00622904,-0.147803,-0.0972561,-0.00615553,-0.0201016,0.00240209,1.41817,-0.0740099,9.3101,-0.0782797,-0.698622,1.69297,0.0808193,-0.711342,1.68534,-0.155973,-0.684712,1.89784,0.158031,-0.689281,1.88701,0.0457173,0.00414163,-0.0833303,-0.0454674,-0.00544071,-0.0910323,0.0144677,0.036301,-0.0783239,-0.00513802,0.0410137,-0.0989006,0,0,0,0,0,0,0,0,0,0,0,0
186.719,-0.00623553,-0.147823,-0.0972536,-0.00612593,-0.0201575,0.00231193,1.4181,-0.0742655,9.30918,-0.0782343,-0.698618,1.69289,0.0807741,-0.711348,1.68525,-0.155959,-0.684676,1.89776,0.158026,-0.689241,1.88691,0.0453063,0.0034005,-0.0813019,-0.0451347,-0.00603592,-0.0889375,0.0142321,0.0354515,-0.076134,-0.00487381,0.0402835,-0.0967063,0,0,0,0,0,0,0,0,0,0,0,0
186.72,-0.00624197,-0.147843,-0.0972513,-0.00609569,-0.020209,0.00222326,1.41798,-0.074524,9.30836,-0.0781895,-0.698616,1.69281,0.0807294,-0.711355,1.68516,-0.155945,-0.684642,1.89769,0.158022,-0.689201,1.88682,0.0448777,0.00269376,-0.0792896,-0.0447832,-0.00660065,-0.0868572,0.0139956,0.0346092,-0.0739461,-0.00461022,0.0395567,-0.0945103,0,0,0,0,0,0,0,0,0,0,0,0
186.721,-0.00624837,-0.147863,-0.097249,-0.00606477,-0.0202558,0.00213627,1.41783,-0.0747843,9.30765,-0.078145,-0.698614,1.69273,0.0806849,-0.711362,1.68507,-0.155931,-0.684608,1.89762,0.158017,-0.689162,1.88672,0.0444302,0.00202481,-0.0772958,-0.044411,-0.00713184,-0.0847936,0.0137584,0.0337752,-0.0717613,-0.00434736,0.038834,-0.0923134,0,0,0,0,0,0,0,0,0,0,0,0
186.722,-0.00625473,-0.147884,-0.0972468,-0.00603603,-0.0202974,0.00204183,1.4177,-0.0748799,9.30685,-0.0781011,-0.698612,1.69266,0.0806409,-0.711369,1.68499,-0.155918,-0.684575,1.89755,0.158013,-0.689124,1.88663,0.0439316,0.00138873,-0.0752798,-0.0440042,-0.00759821,-0.0827893,0.013522,0.0329405,-0.069579,-0.00408345,0.0381243,-0.0901175,0,0,0,0,0,0,0,0,0,0,0,0
186.723,-0.00626105,-0.147904,-0.0972446,-0.00599926,-0.0203483,0.00202029,1.41812,-0.0763078,9.30662,-0.0780578,-0.698611,1.69258,0.0805974,-0.711378,1.68491,-0.155904,-0.684543,1.89748,0.15801,-0.689087,1.88655,0.0433442,0.00100984,-0.0736426,-0.0435325,-0.00805693,-0.0808816,0.0132563,0.0321677,-0.0674263,-0.00384715,0.0373263,-0.0878656,0,0,0,0,0,0,0,0,0,0,0,0
186.724,-0.00626733,-0.147924,-0.0972424,-0.00596077,-0.0204034,0.00200956,1.41865,-0.0766368,9.30575,-0.0780151,-0.69861,1.69251,0.0805545,-0.711386,1.68483,-0.155891,-0.684511,1.89741,0.158006,-0.68905,1.88646,0.0426732,0.000764965,-0.0719574,-0.0429318,-0.0083993,-0.079114,0.0129865,0.0313982,-0.0652768,-0.00361391,0.0365065,-0.0855917,0,0,0,0,0,0,0,0,0,0,0,0
186.724,-0.00626733,-0.147924,-0.0972424,-0.00596077,-0.0204034,0.00200956,1.41865,-0.0766368,9.30575,-0.0780151,-0.69861,1.69251,0.0805545,-0.711386,1.68483,-0.155891,-0.684511,1.89741,0.158006,-0.68905,1.88646,0.0426732,0.000764965,-0.0719574,-0.0429318,-0.0083993,-0.079114,0.0129865,0.0313982,-0.0652768,-0.00361391,0.0365065,-0.0855917,0,0,0,0,0,0,0,0,0,0,0,0
186.725,-0.00627357,-0.147945,-0.0972403,-0.00591821,-0.0204648,0.0019962,1.41924,-0.0768316,9.30533,-0.0779731,-0.69861,1.69244,0.0805122,-0.711395,1.68475,-0.155879,-0.684481,1.89735,0.158003,-0.689015,1.88638,0.0419824,0.000599319,-0.0703853,-0.0422346,-0.00862676,-0.0774152,0.0127207,0.0306116,-0.0631006,-0.00337535,0.0356778,-0.0833102,0,0,0,0,0,0,0,0,0,0,0,0
186.726,-0.00627976,-0.147965,-0.0972382,-0.00587705,-0.0205299,0.00198204,1.41974,-0.0770242,9.30499,-0.0779318,-0.698609,1.69237,0.0804707,-0.711403,1.68468,-0.155866,-0.684451,1.89729,0.157999,-0.68898,1.8863,0.0412627,0.000490006,-0.0688449,-0.0414857,-0.00876462,-0.0757724,0.012453,0.0298157,-0.0609119,-0.00313805,0.034843,-0.0810241,0,0,0,0,0,0,0,0,0,0,0,0
186.727,-0.00628591,-0.147986,-0.097236,-0.00583827,-0.020597,0.00196744,1.42016,-0.0772167,9.30479,-0.0778913,-0.698609,1.6923,0.08043,-0.711412,1.6846,-0.155854,-0.684422,1.89723,0.157996,-0.688946,1.88622,0.0405224,0.000419552,-0.0673253,-0.0407095,-0.00883621,-0.0741743,0.0121827,0.0290157,-0.0587216,-0.00290332,0.0340045,-0.0787349,0,0,0,0,0,0,0,0,0,0,0,0
186.728,-0.00629202,-0.148007,-0.0972339,-0.00580193,-0.0206647,0.00195242,1.42051,-0.0774067,9.30468,-0.0778516,-0.698609,1.69224,0.0803901,-0.711421,1.68453,-0.155842,-0.684394,1.89717,0.157994,-0.688913,1.88614,0.0397662,0.000377643,-0.0658203,-0.0399156,-0.00885756,-0.0726086,0.0119097,0.0282141,-0.0565314,-0.00267139,0.033165,-0.0764449,0,0,0,0,0,0,0,0,0,0,0,0
186.729,-0.0062981,-0.148027,-0.0972319,-0.00576666,-0.0207308,0.00193714,1.42081,-0.0776297,9.30474,-0.0778126,-0.698608,1.69217,0.080351,-0.71143,1.68446,-0.15583,-0.684366,1.89712,0.157991,-0.68888,1.88607,0.0389991,0.000358663,-0.0643257,-0.0391091,-0.00884004,-0.071067,0.0116439,0.0274348,-0.0544211,-0.00244128,0.0323272,-0.0741563,0,0,0,0,0,0,0,0,0,0,0,0
186.73,-0.00630414,-0.148048,-0.0972298,-0.00573579,-0.0207945,0.00192454,1.42091,-0.0778077,9.3049,-0.0777743,-0.698608,1.69211,0.0803127,-0.711439,1.68439,-0.155819,-0.68434,1.89707,0.157989,-0.688849,1.88599,0.0382371,0.000343296,-0.0628174,-0.0383362,-0.00881787,-0.0695462,0.0113707,0.0266569,-0.0522996,-0.00221879,0.0314802,-0.0718399,0,0,0,0,0,0,0,0,0,0,0,0
186.73,-0.00630414,-0.148048,-0.0972298,-0.00573579,-0.0207945,0.00192454,1.42091,-0.0778077,9.3049,-0.0777743,-0.698608,1.69211,0.0803127,-0.711439,1.68439,-0.155819,-0.68434,1.89707,0.157989,-0.688849,1.88599,0.0382371,0.000343296,-0.0628174,-0.0383362,-0.00881787,-0.0695462,0.0113707,0.0266569,-0.0522996,-0.00221879,0.0314802,-0.0718399,0,0,0,0,0,0,0,0,0,0,0,0
186.731,-0.00631015,-0.148069,-0.0972277,-0.00570757,-0.0208543,0.00191213,1.42095,-0.0779485,9.305,-0.0777368,-0.698608,1.69205,0.0802751,-0.711447,1.68432,-0.155808,-0.684314,1.89702,0.157987,-0.688818,1.88593,0.0374724,0.000334879,-0.0613069,-0.0375661,-0.00878437,-0.0680263,0.01109,0.0258736,-0.0501393,-0.00200012,0.0306395,-0.0695292,0,0,0,0,0,0,0,0,0,0,0,0
186.736,-0.00633979,-0.148174,-0.0972176,-0.00558474,-0.0211379,0.00181294,1.4225,-0.0787632,9.3067,-0.0775622,-0.698605,1.69176,0.0801004,-0.711489,1.684,-0.155757,-0.684196,1.8968,0.15798,-0.688677,1.88561,0.0330932,0.00097022,-0.054234,-0.0330216,-0.00770868,-0.0609805,0.00966466,0.0219368,-0.0393372,-0.000914395,0.026548,-0.0581805,0,0,0,0,0,0,0,0,0,0,0,0
186.736,-0.00633979,-0.148174,-0.0972176,-0.00558474,-0.0211379,0.00181294,1.4225,-0.0787632,9.3067,-0.0775622,-0.698605,1.69176,0.0801004,-0.711489,1.684,-0.155757,-0.684196,1.8968,0.15798,-0.688677,1.88561,0.0330932,0.00097022,-0.054234,-0.0330216,-0.00770868,-0.0609805,0.00966466,0.0219368,-0.0393372,-0.000914395,0.026548,-0.0581805,0,0,0,0,0,0,0,0,0,0,0,0
186.736,-0.00633979,-0.148174,-0.0972176,-0.00558474,-0.0211379,0.00181294,1.4225,-0.0787632,9.3067,-0.0775622,-0.698605,1.69176,0.0801004,-0.711489,1.684,-0.155757,-0.684196,1.8968,0.15798,-0.688677,1.88561,0.0330932,0.00097022,-0.054234,-0.0330216,-0.00770868,-0.0609805,0.00966466,0.0219368,-0.0393372,-0.000914395,0.026548,-0.0581805,0,0,0,0,0,0,0,0,0,0,0,0
186.736,-0.00633979,-0.148174,-0.0972176,-0.00558474,-0.0211379,0.00181294,1.4225,-0.0787632,9.3067,-0.0775622,-0.698605,1.69176,0.0801004,-0.711489,1.684,-0.155757,-0.684196,1.8968,0.15798,-0.688677,1.88561,0.0330932,0.00097022,-0.054234,-0.0330216,-0.00770868,-0.0609805,0.00966466,0.0219368,-0.0393372,-0.000914395,0.026548,-0.0581805,0,0,0,0,0,0,0,0,0,0,0,0
186.736,-0.00633979,-0.148174,-0.0972176,-0.00558474,-0.0211379,0.00181294,1.4225,-0.0787632,9.3067,-0.0775622,-0.698605,1.69176,0.0801004,-0.711489,1.684,-0.155757,-0.684196,1.8968,0.15798,-0.688677,1.88561,0.0330932,0.00097022,-0.054234,-0.0330216,-0.00770868,-0.0609805,0.00966466,0.0219368,-0.0393372,-0.000914395,0.026548,-0.0581805,0,0,0,0,0,0,0,0,0,0,0,0
186.737,-0.00634564,-0.148195,-0.0972157,-0.00556283,-0.0211917,0.00179062,1.42265,-0.0789279,9.3073,-0.07753,-0.698603,1.69171,0.0800683,-0.711496,1.68395,-0.155747,-0.684175,1.89676,0.15798,-0.688652,1.88556,0.0321786,0.00118893,-0.0528917,-0.0320749,-0.00738271,-0.0596311,0.00938291,0.021154,-0.0371857,-0.000701832,0.025738,-0.0559244,0,0,0,0,0,0,0,0,0,0,0,0
186.737,-0.00634564,-0.148195,-0.0972157,-0.00556283,-0.0211917,0.00179062,1.42265,-0.0789279,9.3073,-0.07753,-0.698603,1.69171,0.0800683,-0.711496,1.68395,-0.155747,-0.684175,1.89676,0.15798,-0.688652,1.88556,0.0321786,0.00118893,-0.0528917,-0.0320749,-0.00738271,-0.0596311,0.00938291,0.021154,-0.0371857,-0.000701832,0.025738,-0.0559244,0,0,0,0,0,0,0,0,0,0,0,0
186.738,-0.00635147,-0.148216,-0.0972138,-0.00554149,-0.0212485,0.00176267,1.42342,-0.0791037,9.30769,-0.0774988,-0.698602,1.69166,0.0800373,-0.711503,1.68389,-0.155738,-0.684155,1.89673,0.157979,-0.688627,1.8855,0.0311649,0.00149944,-0.051612,-0.0310132,-0.00693776,-0.0584058,0.00910576,0.0204095,-0.0352295,-0.000486682,0.0249413,-0.0537041,0,0,0,0,0,0,0,0,0,0,0,0
186.739,-0.00635727,-0.148238,-0.0972119,-0.0055268,-0.0213064,0.00173679,1.4234,-0.0791249,9.30844,-0.0774686,-0.6986,1.69161,0.0800073,-0.71151,1.68383,-0.155729,-0.684135,1.89669,0.157979,-0.688603,1.88545,0.0302012,0.00179131,-0.0503358,-0.0300285,-0.00652232,-0.0571166,0.00879704,0.0195617,-0.0328639,-0.000280865,0.0241291,-0.0514495,0,0,0,0,0,0,0,0,0,0,0,0
186.74,-0.00636305,-0.148259,-0.09721,-0.00550678,-0.0213548,0.00171203,1.42343,-0.0794136,9.3098,-0.0774394,-0.698598,1.69156,0.0799782,-0.711516,1.68377,-0.155721,-0.684116,1.89666,0.157979,-0.688579,1.8854,0.0292582,0.00208068,-0.0490531,-0.0290599,-0.00611783,-0.0558204,0.00851797,0.0187909,-0.0307388,-7.23688e-05,0.0233312,-0.0492087,0,0,0,0,0,0,0,0,0,0,0,0
186.741,-0.00636881,-0.14828,-0.0972082,-0.00548756,-0.0213978,0.0016881,1.42358,-0.0796008,9.31085,-0.0774111,-0.698596,1.69151,0.0799501,-0.711522,1.68372,-0.155713,-0.684098,1.89663,0.157979,-0.688557,1.88535,0.0283047,0.00238342,-0.047771,-0.028095,-0.0057042,-0.0545537,0.00823977,0.0180692,-0.0287811,0.000134916,0.0225578,-0.0470197,0,0,0,0,0,0,0,0,0,0,0,0
186.742,-0.00637456,-0.148302,-0.0972063,-0.00547251,-0.021439,0.00166055,1.42351,-0.0795737,9.31145,-0.0773837,-0.698593,1.69147,0.079923,-0.711527,1.68367,-0.155705,-0.684081,1.89661,0.157979,-0.688535,1.88531,0.0273611,0.00268232,-0.0465055,-0.0271263,-0.00528787,-0.0532519,0.00793685,0.0172467,-0.0264179,0.000337842,0.0217799,-0.0448069,0,0,0,0,0,0,0,0,0,0,0,0
186.743,-0.00638027,-0.148323,-0.0972046,-0.00545172,-0.0214668,0.00164116,1.42342,-0.0800026,9.31338,-0.0773573,-0.69859,1.69142,0.0798968,-0.711532,1.68361,-0.155697,-0.684064,1.89658,0.15798,-0.688514,1.88527,0.0264341,0.00298388,-0.0452053,-0.0262128,-0.00489769,-0.0519722,0.00767211,0.0165842,-0.0246038,0.000541015,0.0210208,-0.0426166,0,0,0,0,0,0,0,0,0,0,0,0
186.744,-0.00638597,-0.148345,-0.0972028,-0.00543779,-0.021492,0.0016162,1.42321,-0.079858,9.31401,-0.0773318,-0.698587,1.69138,0.0798715,-0.711536,1.68356,-0.15569,-0.684048,1.89656,0.157981,-0.688494,1.88523,0.0255175,0.00327085,-0.0439158,-0.0253027,-0.00451104,-0.0506742,0.00736783,0.0158078,-0.0223308,0.000739028,0.0202735,-0.0404393,0,0,0,0,0,0,0,0,0,0,0,0
186.744,-0.00638597,-0.148345,-0.0972028,-0.00543779,-0.021492,0.0016162,1.42321,-0.079858,9.31401,-0.0773318,-0.698587,1.69138,0.0798715,-0.711536,1.68356,-0.15569,-0.684048,1.89656,0.157981,-0.688494,1.88523,0.0255175,0.00327085,-0.0439158,-0.0253027,-0.00451104,-0.0506742,0.00736783,0.0158078,-0.0223308,0.000739028,0.0202735,-0.0404393,0,0,0,0,0,0,0,0,0,0,0,0
186.745,-0.00639165,-0.148366,-0.097201,-0.00541826,-0.0215068,0.00158579,1.42303,-0.080005,9.31549,-0.0773072,-0.698583,1.69133,0.0798471,-0.71154,1.68351,-0.155683,-0.684033,1.89654,0.157982,-0.688474,1.88519,0.0246163,0.00355941,-0.0426403,-0.0243742,-0.00411056,-0.0493681,0.00708839,0.0150607,-0.020103,0.000942682,0.0195484,-0.0382829,0,0,0,0,0,0,0,0,0,0,0,0
186.746,-0.0063973,-0.148388,-0.0971993,-0.00539608,-0.021507,0.00156222,1.42266,-0.0803451,9.31742,-0.0772834,-0.698579,1.69129,0.0798236,-0.711544,1.68347,-0.155676,-0.684019,1.89652,0.157983,-0.688455,1.88515,0.0237433,0.00383431,-0.0413209,-0.0235159,-0.00374877,-0.0480411,0.0068275,0.0144257,-0.0182744,0.00114379,0.0188396,-0.0361322,0,0,0,0,0,0,0,0,0,0,0,0
186.747,-0.00640293,-0.148409,-0.0971976,-0.00538013,-0.0214981,0.00153866,1.42212,-0.0803054,9.3186,-0.0772605,-0.698575,1.69125,0.0798009,-0.711548,1.68342,-0.155669,-0.684005,1.89651,0.157984,-0.688437,1.88512,0.0228952,0.0040788,-0.0399725,-0.0227119,-0.00342288,-0.0466844,0.00653003,0.0137449,-0.0162729,0.00133773,0.0181485,-0.0339934,0,0,0,0,0,0,0,0,0,0,0,0
186.748,-0.00640841,-0.148431,-0.0971959,-0.00522395,-0.0215345,0.00158578,1.42979,-0.0846537,9.32736,-0.0772377,-0.698572,1.69122,0.0797797,-0.71155,1.68337,-0.155663,-0.683992,1.89649,0.157986,-0.68842,1.88509,0.0227814,0.00365437,-0.0381273,-0.0212117,-0.00263548,-0.0459078,0.00630758,0.0130126,-0.014137,0.00162777,0.0172874,-0.0317427,0,0,0,0,0,0,0,0,0,0,0,0
186.749,-0.00641367,-0.148452,-0.097194,-0.00499148,-0.0215999,0.0016825,1.4366,-0.0892011,9.33601,-0.0772147,-0.698569,1.69118,0.0797604,-0.711552,1.68333,-0.155657,-0.68398,1.89648,0.157988,-0.688403,1.88506,0.0230206,0.00274433,-0.035934,-0.0193183,-0.00142093,-0.0455619,0.00619403,0.0124397,-0.0125073,0.00195402,0.0163105,-0.0294349,0,0,0,0,0,0,0,0,0,0,0,0
186.75,-0.00641877,-0.148474,-0.0971921,-0.00480745,-0.0216691,0.00176547,1.43802,-0.0908545,9.33955,-0.0771916,-0.698567,1.69115,0.0797427,-0.711552,1.68328,-0.155651,-0.683968,1.89647,0.15799,-0.688388,1.88503,0.0231307,0.00177474,-0.0337627,-0.0176191,-0.000153133,-0.0452368,0.00601775,0.0118116,-0.0107283,0.0022275,0.0153461,-0.0271504,0,0,0,0,0,0,0,0,0,0,0,0
186.751,-0.00642374,-0.148496,-0.0971901,-0.00466933,-0.0217342,0.00185653,1.43816,-0.0923779,9.34235,-0.0771685,-0.698566,1.69111,0.0797266,-0.711551,1.68324,-0.155645,-0.683957,1.89646,0.157992,-0.688374,1.885,0.0230698,0.000953221,-0.0317399,-0.0161435,0.00100757,-0.0448959,0.00577792,0.0111774,-0.00888501,0.0024427,0.0143946,-0.0249029,0,0,0,0,0,0,0,0,0,0,0,0
186.752,-0.00642861,-0.148518,-0.097188,-0.00455629,-0.0217859,0.0019712,1.43768,-0.0940349,9.34456,-0.0771456,-0.698566,1.69108,0.0797118,-0.711549,1.68319,-0.15564,-0.683946,1.89645,0.157995,-0.68836,1.88498,0.0228821,0.000345659,-0.0298798,-0.014782,0.00198667,-0.0442965,0.00549744,0.0105947,-0.00709787,0.00261242,0.0134432,-0.0226654,0,0,0,0,0,0,0,0,0,0,0,0
186.753,-0.00643343,-0.14854,-0.0971857,-0.00448688,-0.0220251,0.0020907,1.4636,-0.0943009,9.37212,-0.077123,-0.698566,1.69106,0.0796981,-0.711546,1.68315,-0.155634,-0.683936,1.89645,0.157998,-0.688348,1.88496,0.0226476,-0.000284938,-0.028387,-0.0137119,0.00255986,-0.0438583,0.00518261,0.00977213,-0.00544428,0.00284191,0.0119829,-0.0197727,0,0,0,0,0,0,0,0,0,0,0,0
186.753,-0.00643343,-0.14854,-0.0971857,-0.00448688,-0.0220251,0.0020907,1.4636,-0.0943009,9.37212,-0.077123,-0.698566,1.69106,0.0796981,-0.711546,1.68315,-0.155634,-0.683936,1.89645,0.157998,-0.688348,1.88496,0.0226476,-0.000284938,-0.028387,-0.0137119,0.00255986,-0.0438583,0.00518261,0.00977213,-0.00544428,0.00284191,0.0119829,-0.0197727,0,0,0,0,0,0,0,0,0,0,0,0
186.754,-0.00643845,-0.148562,-0.0971835,-0.0046968,-0.0223141,0.0020358,1.48225,-0.0854006,9.40161,-0.077101,-0.698567,1.69103,0.0796835,-0.711545,1.68311,-0.15563,-0.683928,1.89644,0.158,-0.688337,1.88494,0.0220112,-0.0010099,-0.0271287,-0.0146182,0.00125537,-0.0418939,0.00473693,0.0087003,-0.00378688,0.00268695,0.0110446,-0.0184254,0,0,0,0,0,0,0,0,0,0,0,0
186.755,-0.00644361,-0.148584,-0.0971813,-0.00484052,-0.0226279,0.00199569,1.48842,-0.0852141,9.40952,-0.0770796,-0.698569,1.691,0.0796685,-0.711545,1.68307,-0.155625,-0.68392,1.89644,0.158003,-0.688327,1.88493,0.0214019,-0.00164884,-0.0260288,-0.0150013,-6.8375e-05,-0.0401656,0.00433013,0.00752555,-0.00189277,0.00262454,0.00996057,-0.0167108,0,0,0,0,0,0,0,0,0,0,0,0
186.756,-0.0064488,-0.148608,-0.0971792,-0.00486818,-0.0230342,0.00199461,1.50066,-0.0875069,9.42121,-0.0770587,-0.698571,1.69098,0.0796541,-0.711546,1.68303,-0.155621,-0.683914,1.89644,0.158006,-0.688319,1.88491,0.0209175,-0.00225725,-0.0251605,-0.0143501,-0.000500449,-0.0394072,0.0040028,0.00619182,0.000135679,0.00265456,0.00866594,-0.0148303,0,0,0,0,0,0,0,0,0,0,0,0
186.757,-0.00645404,-0.148631,-0.097177,-0.00492219,-0.0235317,0.00197677,1.51497,-0.0867471,9.43951,-0.0770383,-0.698574,1.69095,0.0796402,-0.711547,1.68299,-0.155618,-0.683909,1.89644,0.158008,-0.688311,1.8849,0.0204004,-0.00290577,-0.0244987,-0.0139526,-0.000979737,-0.0387245,0.00366665,0.0047044,0.00215337,0.00269936,0.0071654,-0.0126764,0,0,0,0,0,0,0,0,0,0,0,0
186.758,-0.00645937,-0.148655,-0.0971749,-0.00500645,-0.0241059,0.00197177,1.52963,-0.0858228,9.45914,-0.0770184,-0.698577,1.69093,0.0796263,-0.711548,1.68295,-0.155614,-0.683906,1.89645,0.158011,-0.688306,1.88489,0.0198724,-0.00358191,-0.0240162,-0.0138259,-0.00175381,-0.0380394,0.0032976,0.00308937,0.00419706,0.0026838,0.00558726,-0.0107751,0,0,0,0,0,0,0,0,0,0,0,0
186.759,-0.00646481,-0.14868,-0.0971727,-0.0051268,-0.0247874,0.00196419,1.54913,-0.0840033,9.48395,-0.076999,-0.698582,1.6909,0.0796123,-0.711551,1.68291,-0.155611,-0.683905,1.89645,0.158014,-0.688302,1.88488,0.0193451,-0.00434321,-0.0237494,-0.0140713,-0.0030172,-0.0372587,0.00290311,0.00128133,0.00628041,0.00265039,0.00380543,-0.00878279,0,0,0,0,0,0,0,0,0,0,0,0
186.759,-0.00646481,-0.14868,-0.0971727,-0.0051268,-0.0247874,0.00196419,1.54913,-0.0840033,9.48395,-0.076999,-0.698582,1.6909,0.0796123,-0.711551,1.68291,-0.155611,-0.683905,1.89645,0.158014,-0.688302,1.88488,0.0193451,-0.00434321,-0.0237494,-0.0140713,-0.0030172,-0.0372587,0.00290311,0.00128133,0.00628041,0.00265039,0.00380543,-0.00878279,0,0,0,0,0,0,0,0,0,0,0,0
186.76,-0.0064704,-0.148705,-0.0971706,-0.00527537,-0.0255186,0.00195114,1.56195,-0.0819267,9.50329,-0.0769802,-0.698587,1.69088,0.0795976,-0.711556,1.68288,-0.155609,-0.683906,1.89646,0.158016,-0.6883,1.88487,0.0188093,-0.00514918,-0.0236191,-0.0146606,-0.00475649,-0.0362894,0.0024988,-0.00061608,0.00833059,0.00260545,0.0019233,-0.00675597,0,0,0,0,0,0,0,0,0,0,0,0
186.761,-0.00647613,-0.148732,-0.0971684,-0.00541374,-0.0261839,0.00193473,1.55914,-0.0806501,9.50746,-0.076962,-0.698593,1.69086,0.0795823,-0.711563,1.68284,-0.155607,-0.683908,1.89647,0.158019,-0.6883,1.88487,0.018263,-0.00588545,-0.0234674,-0.0152966,-0.00662383,-0.0351682,0.00212311,-0.00239702,0.0102542,0.00257108,0.00015316,-0.00482202,0,0,0,0,0,0,0,0,0,0,0,0
186.762,-0.00648198,-0.148758,-0.0971663,-0.00553259,-0.0267979,0.00191867,1.55756,-0.0796047,9.51241,-0.0769442,-0.698599,1.69083,0.0795664,-0.711571,1.68281,-0.155605,-0.683912,1.89648,0.158021,-0.688302,1.88487,0.0177306,-0.00656046,-0.0233081,-0.0158882,-0.00847073,-0.0340213,0.00177945,-0.0040882,0.0120859,0.00255342,-0.00152997,-0.00297262,0,0,0,0,0,0,0,0,0,0,0,0
186.763,-0.00648792,-0.148786,-0.0971642,-0.00563254,-0.0273673,0.00190315,1.55655,-0.0786256,9.51777,-0.076927,-0.698607,1.69081,0.07955,-0.711581,1.68278,-0.155604,-0.683918,1.8965,0.158024,-0.688305,1.88486,0.0172147,-0.00718194,-0.0231469,-0.0164277,-0.01025,-0.032886,0.0014662,-0.00570097,0.013834,0.00255212,-0.00313752,-0.00120003,0,0,0,0,0,0,0,0,0,0,0,0
186.764,-0.00649395,-0.148814,-0.0971621,-0.00571509,-0.0278956,0.00188822,1.55587,-0.0776922,9.5233,-0.0769103,-0.698614,1.69079,0.0795331,-0.711593,1.68274,-0.155602,-0.683925,1.89651,0.158027,-0.688309,1.88487,0.0167152,-0.00775528,-0.0229859,-0.016915,-0.0119474,-0.0317757,0.00118125,-0.00724159,0.0155035,0.00256578,-0.00467557,0.000499815,0,0,0,0,0,0,0,0,0,0,0,0
186.765,-0.00650003,-0.148842,-0.09716,-0.00576902,-0.0283853,0.00190367,1.5548,-0.0775582,9.52824,-0.076894,-0.698623,1.69077,0.0795158,-0.711607,1.68271,-0.155601,-0.683934,1.89653,0.158029,-0.688316,1.88487,0.0162588,-0.0082599,-0.0228069,-0.0173252,-0.0135795,-0.0307035,0.00091408,-0.0086802,0.0170737,0.00264072,-0.00625287,0.00234205,0,0,0,0,0,0,0,0,0,0,0,0
186.766,-0.00650616,-0.148871,-0.0971579,-0.00581833,-0.0288041,0.00189208,1.55057,-0.0762226,9.53034,-0.0768783,-0.698631,1.69074,0.0794981,-0.711622,1.68268,-0.155601,-0.683944,1.89655,0.158032,-0.688323,1.88487,0.0157814,-0.00871125,-0.0226025,-0.0176685,-0.0150461,-0.0296387,0.000682244,-0.010025,0.0185612,0.00268052,-0.00760626,0.00387406,0,0,0,0,0,0,0,0,0,0,0,0
186.767,-0.00651231,-0.1489,-0.0971558,-0.00583538,-0.0291712,0.00191766,1.54715,-0.0765202,9.53256,-0.0768629,-0.69864,1.69072,0.0794802,-0.711638,1.68265,-0.1556,-0.683955,1.89657,0.158035,-0.688332,1.88488,0.0153482,-0.00907471,-0.0223523,-0.0179048,-0.0164074,-0.0286145,0.000466143,-0.0112353,0.0199339,0.0027924,-0.00899972,0.00559117,0,0,0,0,0,0,0,0,0,0,0,0
186.768,-0.00651849,-0.148929,-0.0971537,-0.00585862,-0.0294704,0.0019004,1.54327,-0.0749355,9.53464,-0.076848,-0.69865,1.6907,0.0794621,-0.711656,1.68263,-0.1556,-0.683967,1.89659,0.158038,-0.688342,1.88488,0.0148765,-0.00940067,-0.0220869,-0.0180898,-0.0175824,-0.0276031,0.000284399,-0.0123762,0.0212458,0.00283878,-0.0101175,0.00688647,0,0,0,0,0,0,0,0,0,0,0,0
186.768,-0.00651849,-0.148929,-0.0971537,-0.00585862,-0.0294704,0.0019004,1.54327,-0.0749355,9.53464,-0.076848,-0.69865,1.6907,0.0794621,-0.711656,1.68263,-0.1556,-0.683967,1.89659,0.158038,-0.688342,1.88488,0.0148765,-0.00940067,-0.0220869,-0.0180898,-0.0175824,-0.0276031,0.000284399,-0.0123762,0.0212458,0.00283878,-0.0101175,0.00688647,0,0,0,0,0,0,0,0,0,0,0,0
186.769,-0.00652465,-0.148959,-0.0971515,-0.005844,-0.0297343,0.00194424,1.54114,-0.0758956,9.53758,-0.0768336,-0.698659,1.69068,0.079444,-0.711675,1.6826,-0.1556,-0.683981,1.89661,0.15804,-0.688354,1.88489,0.0144787,-0.00964096,-0.021827,-0.018131,-0.0186117,-0.0267562,0.000102907,-0.0134158,0.0225341,0.00292393,-0.0113423,0.0085363,0,0,0,0,0,0,0,0,0,0,0,0
186.77,-0.00653081,-0.148989,-0.0971493,-0.00583404,-0.029936,0.00194745,1.53756,-0.0746095,9.53933,-0.0768195,-0.698669,1.69066,0.0794258,-0.711694,1.68257,-0.1556,-0.683995,1.89664,0.158043,-0.688366,1.8849,0.0140401,-0.00984769,-0.0215072,-0.0181295,-0.019487,-0.0258683,-4.4638e-05,-0.0143701,0.0237018,0.00300076,-0.0123427,0.00978967,0,0,0,0,0,0,0,0,0,0,0,0
186.771,-0.00653694,-0.149019,-0.0971472,-0.00580935,-0.0300927,0.0019518,1.53504,-0.0744093,9.54145,-0.0768059,-0.698679,1.69063,0.0794078,-0.711714,1.68255,-0.1556,-0.68401,1.89666,0.158047,-0.688379,1.88491,0.0136092,-0.0100035,-0.0211637,-0.0180155,-0.020206,-0.0250328,-0.000171219,-0.0152422,0.0247929,0.00308909,-0.0132663,0.0109765,0,0,0,0,0,0,0,0,0,0,0,0
186.772,-0.00654303,-0.149049,-0.097145,-0.0057734,-0.0302076,0.00195717,1.53274,-0.0742742,9.54361,-0.0767927,-0.698689,1.69061,0.07939,-0.711735,1.68253,-0.1556,-0.684026,1.89669,0.15805,-0.688393,1.88493,0.0131832,-0.010112,-0.0208003,-0.0178083,-0.0207741,-0.0242589,-0.000281095,-0.0160396,0.0258183,0.00318544,-0.01412,0.012107,0,0,0,0,0,0,0,0,0,0,0,0
186.773,-0.00654908,-0.14908,-0.0971428,-0.00571599,-0.0302968,0.00199117,1.53171,-0.0749072,9.54648,-0.0767799,-0.6987,1.69059,0.0793726,-0.711756,1.6825,-0.155601,-0.684043,1.89671,0.158053,-0.688408,1.88494,0.0127946,-0.0101689,-0.0204417,-0.0174391,-0.0211378,-0.0236866,-0.000392293,-0.0167954,0.0268891,0.00328622,-0.0149747,0.0132652,0,0,0,0,0,0,0,0,0,0,0,0
186.774,-0.00655507,-0.14911,-0.0971406,-0.0056637,-0.030338,0.00200222,1.52896,-0.074372,9.54822,-0.0767676,-0.69871,1.69057,0.0793555,-0.711778,1.68248,-0.155601,-0.684061,1.89674,0.158056,-0.688424,1.88495,0.0123775,-0.0101927,-0.0200453,-0.0170814,-0.0214239,-0.023023,-0.000479608,-0.0174579,0.0277953,0.00338935,-0.0157094,0.0142987,0,0,0,0,0,0,0,0,0,0,0,0
186.774,-0.00655507,-0.14911,-0.0971406,-0.0056637,-0.030338,0.00200222,1.52896,-0.074372,9.54822,-0.0767676,-0.69871,1.69057,0.0793555,-0.711778,1.68248,-0.155601,-0.684061,1.89674,0.158056,-0.688424,1.88495,0.0123775,-0.0101927,-0.0200453,-0.0170814,-0.0214239,-0.023023,-0.000479608,-0.0174579,0.0277953,0.00338935,-0.0157094,0.0142987,0,0,0,0,0,0,0,0,0,0,0,0
186.775,-0.00656101,-0.14914,-0.0971383,-0.00559887,-0.0303522,0.00203107,1.52778,-0.0748196,9.55074,-0.0767556,-0.69872,1.69055,0.0793389,-0.711799,1.68246,-0.155602,-0.684079,1.89677,0.15806,-0.68844,1.88497,0.0119817,-0.0101729,-0.0196491,-0.0166114,-0.0215641,-0.0225034,-0.000568509,-0.0180811,0.0287344,0.00349323,-0.016423,0.0153271,0,0,0,0,0,0,0,0,0,0,0,0
186.776,-0.00656689,-0.149171,-0.097136,-0.00554355,-0.0303193,0.00203823,1.52502,-0.0743119,9.55228,-0.076744,-0.69873,1.69053,0.0793227,-0.711821,1.68243,-0.155602,-0.684097,1.8968,0.158064,-0.688457,1.88498,0.011553,-0.0101206,-0.0192118,-0.01619,-0.021681,-0.0218583,-0.000638271,-0.0186078,0.0294959,0.00359455,-0.0170262,0.0162527,0,0,0,0,0,0,0,0,0,0,0,0
186.777,-0.00657271,-0.149201,-0.0971337,-0.00547848,-0.0302617,0.00206637,1.52392,-0.0748014,9.55468,-0.0767329,-0.69874,1.69052,0.079307,-0.711843,1.68241,-0.155603,-0.684116,1.89683,0.158067,-0.688475,1.885,0.0111455,-0.0100249,-0.0187774,-0.0156807,-0.0216889,-0.0213425,-0.000716153,-0.0191019,0.0303123,0.00369248,-0.0176158,0.0171807,0,0,0,0,0,0,0,0,0,0,0,0
186.778,-0.00657846,-0.149231,-0.0971314,-0.00541041,-0.0301746,0.00209404,1.52256,-0.0749452,9.55683,-0.0767221,-0.69875,1.6905,0.0792919,-0.711864,1.68239,-0.155604,-0.684136,1.89686,0.158071,-0.688493,1.88502,0.0107365,-0.0098982,-0.0183287,-0.0151195,-0.0215951,-0.0208628,-0.000786504,-0.0195415,0.0310713,0.00379008,-0.0181539,0.0180643,0,0,0,0,0,0,0,0,0,0,0,0
186.779,-0.00658415,-0.149261,-0.0971291,-0.00534333,-0.0300569,0.00211918,1.52107,-0.0750237,9.55883,-0.0767118,-0.69876,1.69048,0.0792774,-0.711886,1.68237,-0.155605,-0.684156,1.89689,0.158075,-0.688512,1.88504,0.0103202,-0.00974146,-0.0178633,-0.0145383,-0.0214333,-0.0203853,-0.000851378,-0.0199249,0.0317669,0.00388438,-0.0186354,0.0188975,0,0,0,0,0,0,0,0,0,0,0,0
186.78,-0.00658978,-0.149291,-0.0971267,-0.00527805,-0.0299098,0.00214312,1.51963,-0.0751181,9.56078,-0.0767019,-0.698769,1.69046,0.0792634,-0.711907,1.68235,-0.155606,-0.684176,1.89693,0.158079,-0.688531,1.88506,0.0098968,-0.00955487,-0.0173827,-0.0139454,-0.0212197,-0.0199074,-0.000913052,-0.0202548,0.0324065,0.00397405,-0.0190647,0.019687,0,0,0,0,0,0,0,0,0,0,0,0
186.78,-0.00658978,-0.149291,-0.0971267,-0.00527805,-0.0299098,0.00214312,1.51963,-0.0751181,9.56078,-0.0767019,-0.698769,1.69046,0.0792634,-0.711907,1.68235,-0.155606,-0.684176,1.89693,0.158079,-0.688531,1.88506,0.0098968,-0.00955487,-0.0173827,-0.0139454,-0.0212197,-0.0199074,-0.000913052,-0.0202548,0.0324065,0.00397405,-0.0190647,0.019687,0,0,0,0,0,0,0,0,0,0,0,0
186.781,-0.00659534,-0.149321,-0.0971243,-0.00520013,-0.0297502,0.00218421,1.51962,-0.0758481,9.56341,-0.0766924,-0.698779,1.69044,0.0792502,-0.711928,1.68233,-0.155607,-0.684197,1.89696,0.158083,-0.68855,1.88508,0.00949718,-0.00934108,-0.0169122,-0.0132176,-0.0208459,-0.0195975,-0.000978848,-0.020573,0.033105,0.00406459,-0.0194935,0.0204768,0,0,0,0,0,0,0,0,0,0,0,0
186.782,-0.00660084,-0.14935,-0.0971219,-0.00513414,-0.0295571,0.00220997,1.51784,-0.0756861,9.56512,-0.0766833,-0.698788,1.69043,0.0792376,-0.711948,1.68231,-0.155608,-0.684218,1.89699,0.158087,-0.68857,1.8851,0.0090701,-0.00910565,-0.0164144,-0.0125595,-0.0204753,-0.0191834,-0.00103604,-0.0208187,0.0336622,0.00414669,-0.0198449,0.0211965,0,0,0,0,0,0,0,0,0,0,0,0
186.783,-0.00660626,-0.149379,-0.0971194,-0.00505897,-0.0293511,0.00224669,1.51781,-0.0763207,9.56753,-0.0766747,-0.698797,1.69041,0.0792258,-0.711968,1.68229,-0.155609,-0.684239,1.89703,0.158091,-0.68859,1.88512,0.00865864,-0.00884785,-0.0159218,-0.0117871,-0.0199766,-0.0188936,-0.00109484,-0.0210493,0.0342509,0.00422914,-0.0201876,0.0219073,0,0,0,0,0,0,0,0,0,0,0,0
186.784,-0.00661163,-0.149409,-0.0971169,-0.00499842,-0.0291135,0.00227139,1.51606,-0.0761844,9.56915,-0.0766665,-0.698805,1.6904,0.0792147,-0.711988,1.68228,-0.15561,-0.68426,1.89706,0.158096,-0.688611,1.88514,0.00822,-0.00856814,-0.0154051,-0.0111134,-0.0195198,-0.0184927,-0.00115157,-0.021214,0.0347233,0.00429911,-0.02046,0.0225567,0,0,0,0,0,0,0,0,0,0,0,0
186.785,-0.00661694,-0.149437,-0.0971144,-0.00493036,-0.0288638,0.00230571,1.51602,-0.0767674,9.57144,-0.0766587,-0.698813,1.69038,0.0792044,-0.712007,1.68226,-0.155611,-0.684281,1.8971,0.1581,-0.688632,1.88517,0.00779472,-0.00826818,-0.0148929,-0.0103433,-0.0189585,-0.0181959,-0.00121041,-0.0213646,0.0352244,0.00436856,-0.0207231,0.0231963,0,0,0,0,0,0,0,0,0,0,0,0
186.786,-0.00662218,-0.149466,-0.0971118,-0.00486023,-0.028601,0.0023416,1.51591,-0.07724,9.57371,-0.0766513,-0.698821,1.69037,0.0791949,-0.712025,1.68224,-0.155612,-0.684303,1.89713,0.158104,-0.688653,1.88519,0.00737163,-0.00795365,-0.0143803,-0.00952122,-0.0183057,-0.0179537,-0.00126754,-0.0214893,0.0356955,0.00443556,-0.0209644,0.0238116,0,0,0,0,0,0,0,0,0,0,0,0
186.787,-0.00662737,-0.149494,-0.0971093,-0.00480917,-0.028307,0.00236544,1.51408,-0.0770408,9.57515,-0.0766444,-0.698829,1.69035,0.079186,-0.712043,1.68222,-0.155614,-0.684324,1.89717,0.158109,-0.688674,1.88522,0.00691771,-0.00761885,-0.0138435,-0.00884361,-0.0177516,-0.0175705,-0.0013278,-0.0215536,0.0360687,0.00448592,-0.0211366,0.0243691,0,0,0,0,0,0,0,0,0,0,0,0
186.787,-0.00662737,-0.149494,-0.0971093,-0.00480917,-0.028307,0.00236544,1.51408,-0.0770408,9.57515,-0.0766444,-0.698829,1.69035,0.079186,-0.712043,1.68222,-0.155614,-0.684324,1.89717,0.158109,-0.688674,1.88522,0.00691771,-0.00761885,-0.0138435,-0.00884361,-0.0177516,-0.0175705,-0.0013278,-0.0215536,0.0360687,0.00448592,-0.0211366,0.0243691,0,0,0,0,0,0,0,0,0,0,0,0
186.788,-0.00663251,-0.149522,-0.0971066,-0.00474916,-0.0280045,0.00239773,1.5143,-0.077639,9.57738,-0.0766379,-0.698836,1.69034,0.079178,-0.71206,1.6822,-0.155615,-0.684346,1.8972,0.158113,-0.688695,1.88524,0.00647843,-0.00726845,-0.0133125,-0.00806033,-0.0170954,-0.0172861,-0.0013877,-0.0216069,0.0364617,0.00453792,-0.0213036,0.0249181,0,0,0,0,0,0,0,0,0,0,0,0
186.789,-0.0066376,-0.14955,-0.097104,-0.00468942,-0.0276903,0.00243074,1.5142,-0.0780483,9.57953,-0.0766319,-0.698843,1.69033,0.0791707,-0.712076,1.68219,-0.155617,-0.684367,1.89724,0.158118,-0.688717,1.88527,0.00603913,-0.00690615,-0.0127816,-0.00725341,-0.0163777,-0.0170371,-0.00144785,-0.0216383,0.0368309,0.0045858,-0.0214501,0.0254445,0,0,0,0,0,0,0,0,0,0,0,0
186.79,-0.00664262,-0.149577,-0.0971013,-0.00462945,-0.0273663,0.00246499,1.51425,-0.0785089,9.5817,-0.0766263,-0.69885,1.69032,0.0791643,-0.712092,1.68217,-0.155618,-0.684389,1.89728,0.158123,-0.688738,1.88529,0.00560111,-0.0065337,-0.0122522,-0.00641811,-0.015601,-0.0168269,-0.00150855,-0.021651,0.0371803,0.0046298,-0.0215798,0.0259509,0,0,0,0,0,0,0,0,0,0,0,0
186.791,-0.0066476,-0.149604,-0.0970986,-0.00457332,-0.02703,0.00249789,1.51407,-0.0788662,9.58372,-0.0766211,-0.698856,1.6903,0.0791587,-0.712107,1.68215,-0.15562,-0.684411,1.89732,0.158127,-0.68876,1.88532,0.00515839,-0.00615135,-0.0117206,-0.00559254,-0.014805,-0.0166182,-0.00157114,-0.0216411,0.037501,0.00466713,-0.0216856,0.0264326,0,0,0,0,0,0,0,0,0,0,0,0
186.792,-0.00665253,-0.149631,-0.0970959,-0.00451949,-0.0266831,0.00253046,1.51401,-0.0792618,9.58574,-0.0766164,-0.698862,1.69029,0.0791539,-0.71212,1.68214,-0.155621,-0.684432,1.89735,0.158132,-0.688782,1.88535,0.00471354,-0.00576008,-0.0111885,-0.00476565,-0.0139866,-0.0164191,-0.00163532,-0.0216117,0.0377987,0.00469889,-0.0217715,0.0268924,0,0,0,0,0,0,0,0,0,0,0,0
186.793,-0.00665739,-0.149657,-0.0970931,-0.00445488,-0.0263392,0.00253479,1.51397,-0.0792509,9.58877,-0.0766118,-0.698867,1.69028,0.07915,-0.712134,1.68212,-0.155623,-0.684454,1.89739,0.158137,-0.688803,1.88537,0.00457687,-0.00592711,-0.0102506,-0.0039519,-0.0131517,-0.0162065,-0.00170087,-0.0216668,0.0382619,0.00475271,-0.0218273,0.0273291,0,0,0,0,0,0,0,0,0,0,0,0
186.794,-0.00666219,-0.149683,-0.0970904,-0.00439435,-0.0259867,0.00251862,1.51326,-0.0795249,9.59131,-0.0766073,-0.698874,1.69027,0.0791468,-0.712146,1.68211,-0.155625,-0.684476,1.89743,0.158142,-0.688825,1.8854,0.00452633,-0.0062714,-0.00918762,-0.00317683,-0.0123175,-0.0159633,-0.00177517,-0.021755,0.0387999,0.00480811,-0.0218414,0.0277313,0,0,0,0,0,0,0,0,0,0,0,0
186.794,-0.00666219,-0.149683,-0.0970904,-0.00439435,-0.0259867,0.00251862,1.51326,-0.0795249,9.59131,-0.0766073,-0.698874,1.69027,0.0791468,-0.712146,1.68211,-0.155625,-0.684476,1.89743,0.158142,-0.688825,1.8854,0.00452633,-0.0062714,-0.00918762,-0.00317683,-0.0123175,-0.0159633,-0.00177517,-0.021755,0.0387999,0.00480811,-0.0218414,0.0277313,0,0,0,0,0,0,0,0,0,0,0,0
186.795,-0.00666693,-0.149709,-0.0970877,-0.00432745,-0.0256056,0.00255173,1.5119,-0.0811529,9.59463,-0.0766028,-0.69888,1.69026,0.0791443,-0.712158,1.68209,-0.155627,-0.684497,1.89747,0.158146,-0.688847,1.88543,0.00451242,-0.00656404,-0.00809354,-0.00252485,-0.0117073,-0.0155826,-0.00179581,-0.021574,0.0387913,0.00483831,-0.0218533,0.0281093,0,0,0,0,0,0,0,0,0,0,0,0
186.796,-0.00667162,-0.149734,-0.0970849,-0.00428214,-0.0252224,0.00253494,1.51129,-0.0807269,9.59585,-0.0765983,-0.698887,1.69026,0.0791424,-0.712169,1.68207,-0.155629,-0.684519,1.89751,0.158151,-0.688869,1.88546,0.0044415,-0.00687306,-0.00702433,-0.00184181,-0.0109653,-0.0152486,-0.00187441,-0.0215774,0.0392015,0.00486885,-0.0218045,0.0284489,0,0,0,0,0,0,0,0,0,0,0,0
186.797,-0.00667626,-0.149759,-0.0970822,-0.00423097,-0.0248149,0.00255949,1.51004,-0.0821289,9.59897,-0.0765939,-0.698894,1.69025,0.0791412,-0.712179,1.68206,-0.15563,-0.68454,1.89755,0.158156,-0.688891,1.88549,0.00440186,-0.00713684,-0.00593161,-0.00126358,-0.0104034,-0.0148026,-0.00190901,-0.0213549,0.0391516,0.00487848,-0.0217522,0.0287665,0,0,0,0,0,0,0,0,0,0,0,0
186.798,-0.00668087,-0.149783,-0.0970794,-0.00419744,-0.0244059,0.00253495,1.50948,-0.0817035,9.60026,-0.0765896,-0.698902,1.69025,0.0791405,-0.712189,1.68205,-0.155632,-0.684562,1.89759,0.158161,-0.688912,1.88551,0.00430965,-0.00741673,-0.00486284,-0.00064426,-0.00970179,-0.0144078,-0.0019872,-0.0212984,0.0394886,0.00489196,-0.0216406,0.0290434,0,0,0,0,0,0,0,0,0,0,0,0
186.799,-0.00668543,-0.149807,-0.0970767,-0.00415761,-0.0239752,0.0025564,1.50824,-0.0831053,9.60331,-0.0765854,-0.698909,1.69024,0.0791404,-0.712198,1.68203,-0.155634,-0.684583,1.89763,0.158166,-0.688934,1.88554,0.00425312,-0.0076499,-0.00377628,-0.000135853,-0.00918497,-0.0139067,-0.00203604,-0.0210334,0.0393827,0.0048836,-0.021535,0.0293109,0,0,0,0,0,0,0,0,0,0,0,0
186.8,-0.00668997,-0.149831,-0.097074,-0.00413243,-0.0235442,0.00252277,1.50778,-0.082572,9.60457,-0.0765812,-0.698917,1.69024,0.0791408,-0.712206,1.68202,-0.155637,-0.684604,1.89767,0.158171,-0.688955,1.88557,0.0041427,-0.00790318,-0.00271371,0.00043807,-0.00850146,-0.013471,-0.00211369,-0.0209337,0.0396786,0.0048849,-0.0213658,0.0295304,0,0,0,0,0,0,0,0,0,0,0,0
186.801,-0.00669448,-0.149854,-0.0970713,-0.00410118,-0.0230944,0.00253657,1.50658,-0.0839359,9.60753,-0.0765772,-0.698925,1.69024,0.0791417,-0.712214,1.68201,-0.155639,-0.684624,1.89771,0.158176,-0.688976,1.8856,0.00406943,-0.00811025,-0.00163964,0.000897776,-0.00799954,-0.0129335,-0.00217775,-0.0206506,0.0395616,0.0048643,-0.0212089,0.0297508,0,0,0,0,0,0,0,0,0,0,0,0
186.802,-0.00669896,-0.149876,-0.0970686,-0.00407935,-0.0226432,0.00250034,1.50614,-0.0835183,9.60896,-0.0765732,-0.698934,1.69024,0.0791432,-0.712222,1.68199,-0.155641,-0.684645,1.89775,0.158181,-0.688997,1.88563,0.00395053,-0.00833405,-0.000584499,0.00142916,-0.00734523,-0.0124591,-0.00224657,-0.0204881,0.0397706,0.00485555,-0.0209915,0.0299193,0,0,0,0,0,0,0,0,0,0,0,0
186.802,-0.00669896,-0.149876,-0.0970686,-0.00407935,-0.0226432,0.00250034,1.50614,-0.0835183,9.60896,-0.0765732,-0.698934,1.69024,0.0791432,-0.712222,1.68199,-0.155641,-0.684645,1.89775,0.158181,-0.688997,1.88563,0.00395053,-0.00833405,-0.000584499,0.00142916,-0.00734523,-0.0124591,-0.00224657,-0.0204881,0.0397706,0.00485555,-0.0209915,0.0299193,0,0,0,0,0,0,0,0,0,0,0,0
186.803,-0.00670341,-0.149899,-0.097066,-0.00405931,-0.0221845,0.00244687,1.50548,-0.083778,9.61106,-0.0765694,-0.698942,1.69024,0.0791451,-0.712228,1.68198,-0.155643,-0.684665,1.89779,0.158185,-0.689018,1.88566,0.00381606,-0.00855273,0.000460953,0.00196308,-0.00665765,-0.0119861,-0.00230684,-0.0203302,0.0400129,0.0048494,-0.0207378,0.0300525,0,0,0,0,0,0,0,0,0,0,0,0
186.804,-0.00670784,-0.14992,-0.0970633,-0.00403183,-0.0217086,0.0024607,1.50421,-0.0854177,9.61407,-0.0765657,-0.698951,1.69024,0.0791475,-0.712235,1.68197,-0.155646,-0.684685,1.89783,0.15819,-0.689039,1.88569,0.00373479,-0.00871501,0.0015145,0.00234916,-0.00621241,-0.0113871,-0.00237502,-0.019976,0.0397745,0.004814,-0.0205202,0.0302121,0,0,0,0,0,0,0,0,0,0,0,0
186.805,-0.00671224,-0.149942,-0.0970607,-0.00401264,-0.0212341,0.00241806,1.50391,-0.0848615,9.61542,-0.0765621,-0.69896,1.69024,0.0791503,-0.71224,1.68196,-0.155648,-0.684705,1.89787,0.158195,-0.689059,1.88572,0.00360462,-0.00889919,0.0025464,0.00282552,-0.00558382,-0.010875,-0.00243873,-0.0197529,0.0398997,0.00479487,-0.0202397,0.0303157,0,0,0,0,0,0,0,0,0,0,0,0
186.806,-0.00671664,-0.149962,-0.0970582,-0.00403177,-0.0207783,0.00235638,1.5036,-0.084284,9.62,-0.0765586,-0.698969,1.69025,0.0791531,-0.712246,1.68195,-0.155651,-0.684724,1.89791,0.1582,-0.689079,1.88575,0.00342593,-0.00909122,0.00353303,0.00283063,-0.00546564,-0.0102258,-0.00253081,-0.0195717,0.040066,0.00474207,-0.0199398,0.03036,0,0,0,0,0,0,0,0,0,0,0,0
186.807,-0.00672106,-0.149983,-0.0970558,-0.00405378,-0.0203274,0.00225234,1.50299,-0.083604,9.62307,-0.0765554,-0.698978,1.69025,0.0791558,-0.712251,1.68194,-0.155653,-0.684744,1.89795,0.158204,-0.689098,1.88578,0.00321583,-0.00929324,0.00448278,0.0027223,-0.00562692,-0.00911219,-0.00259783,-0.0194086,0.040145,0.00470839,-0.0195971,0.0303827,0,0,0,0,0,0,0,0,0,0,0,0
186.807,-0.00672106,-0.149983,-0.0970558,-0.00405378,-0.0203274,0.00225234,1.50299,-0.083604,9.62307,-0.0765554,-0.698978,1.69025,0.0791558,-0.712251,1.68194,-0.155653,-0.684744,1.89795,0.158204,-0.689098,1.88578,0.00321583,-0.00929324,0.00448278,0.0027223,-0.00562692,-0.00911219,-0.00259783,-0.0194086,0.040145,0.00470839,-0.0195971,0.0303827,0,0,0,0,0,0,0,0,0,0,0,0
186.808,-0.00672546,-0.150002,-0.0970534,-0.00405115,-0.0198589,0.00220598,1.50147,-0.0847189,9.62549,-0.0765523,-0.698988,1.69026,0.0791585,-0.712257,1.68193,-0.155656,-0.684763,1.89799,0.158209,-0.689118,1.88581,0.00307067,-0.00944147,0.00543776,0.00265765,-0.00574621,-0.00810805,-0.00266196,-0.0191177,0.040028,0.00466993,-0.0192836,0.0304328,0,0,0,0,0,0,0,0,0,0,0,0
186.809,-0.00672986,-0.150022,-0.0970512,-0.00405798,-0.0194002,0.00209636,1.50108,-0.0835584,9.62816,-0.0765495,-0.698997,1.69026,0.0791611,-0.712263,1.68192,-0.155659,-0.684782,1.89803,0.158214,-0.689137,1.88585,0.00287311,-0.00961552,0.00635455,0.00256164,-0.00590698,-0.0069509,-0.00270727,-0.0189279,0.0400695,0.00465096,-0.0189048,0.030415,0,0,0,0,0,0,0,0,0,0,0,0
186.81,-0.00673424,-0.150041,-0.0970491,-0.00406139,-0.0189423,0.00196682,1.50026,-0.0832071,9.63087,-0.0765468,-0.699007,1.69027,0.0791635,-0.712269,1.68192,-0.155661,-0.684801,1.89807,0.158218,-0.689155,1.88588,0.00266599,-0.00978688,0.00724721,0.00246146,-0.00608186,-0.00573161,-0.00273777,-0.0187531,0.0401238,0.00464472,-0.0184977,0.030372,0,0,0,0,0,0,0,0,0,0,0,0
186.811,-0.00673858,-0.150059,-0.097047,-0.0040336,-0.0184617,0.00193089,1.4985,-0.0849842,9.63324,-0.0765443,-0.699017,1.69028,0.079166,-0.712275,1.68191,-0.155664,-0.684819,1.89811,0.158223,-0.689173,1.88591,0.0025553,-0.00988364,0.00815715,0.00242396,-0.00616346,-0.00476837,-0.0027744,-0.0183904,0.0398937,0.00462236,-0.0181495,0.0303788,0,0,0,0,0,0,0,0,0,0,0,0
186.812,-0.00674289,-0.150077,-0.097045,-0.00401685,-0.0179921,0.00183781,1.49817,-0.0839405,9.63578,-0.0765419,-0.699027,1.69029,0.0791683,-0.712281,1.68191,-0.155667,-0.684837,1.89815,0.158228,-0.689191,1.88594,0.00239487,-0.0100034,0.00902623,0.002356,-0.00626419,-0.00371372,-0.00279827,-0.0181347,0.039858,0.00461463,-0.0177459,0.0303278,0,0,0,0,0,0,0,0,0,0,0,0
186.813,-0.00674717,-0.150095,-0.0970431,-0.00400054,-0.0175268,0.00171611,1.49753,-0.0834606,9.63843,-0.0765396,-0.699037,1.6903,0.0791706,-0.712288,1.68191,-0.15567,-0.684855,1.89819,0.158232,-0.689208,1.88597,0.00221494,-0.0101281,0.00986849,0.00227692,-0.00639368,-0.00256183,-0.00280738,-0.0179082,0.0398436,0.00461934,-0.0173078,0.0302399,0,0,0,0,0,0,0,0,0,0,0,0
186.814,-0.00675141,-0.150112,-0.0970414,-0.00397631,-0.0170594,0.00160129,1.49659,-0.0836241,9.64102,-0.0765376,-0.699047,1.69031,0.0791728,-0.712294,1.68191,-0.155673,-0.684873,1.89823,0.158237,-0.689225,1.886,0.00204845,-0.0102349,0.010694,0.00220727,-0.00651286,-0.00142723,-0.00280891,-0.0176532,0.0397764,0.00462791,-0.0168659,0.0301477,0,0,0,0,0,0,0,0,0,0,0,0
186.815,-0.0067556,-0.150128,-0.0970398,-0.00394529,-0.0165903,0.00149432,1.49568,-0.0837986,9.64356,-0.0765357,-0.699058,1.69032,0.0791749,-0.712301,1.68191,-0.155675,-0.68489,1.89827,0.158242,-0.689242,1.88603,0.00189497,-0.0103238,0.0115023,0.00214639,-0.00661272,-0.00033334,-0.00280515,-0.0173735,0.0396709,0.00463796,-0.0164206,0.0300463,0,0,0,0,0,0,0,0,0,0,0,0
186.815,-0.0067556,-0.150128,-0.0970398,-0.00394529,-0.0165903,0.00149432,1.49568,-0.0837986,9.64356,-0.0765357,-0.699058,1.69032,0.0791749,-0.712301,1.68191,-0.155675,-0.68489,1.89827,0.158242,-0.689242,1.88603,0.00189497,-0.0103238,0.0115023,0.00214639,-0.00661272,-0.00033334,-0.00280515,-0.0173735,0.0396709,0.00463796,-0.0164206,0.0300463,0,0,0,0,0,0,0,0,0,0,0,0
186.816,-0.00675972,-0.150144,-0.0970382,-0.00389098,-0.0161054,0.00146413,1.49424,-0.0852791,9.64581,-0.0765339,-0.699068,1.69033,0.0791771,-0.712308,1.68191,-0.155678,-0.684907,1.8983,0.158246,-0.689258,1.88606,0.0018186,-0.0103556,0.0123288,0.00213467,-0.00662977,0.000530548,-0.0028096,-0.0169472,0.0393507,0.004632,-0.016021,0.0299704,0,0,0,0,0,0,0,0,0,0,0,0
186.817,-0.0067638,-0.15016,-0.0970367,-0.00384909,-0.0156344,0.00137837,1.49403,-0.084302,9.6482,-0.0765322,-0.699078,1.69034,0.0791792,-0.712314,1.68191,-0.155681,-0.684924,1.89834,0.158251,-0.689273,1.88609,0.00169204,-0.010409,0.0131056,0.00209152,-0.00666986,0.00148617,-0.00280376,-0.0166297,0.0392228,0.00463985,-0.0155793,0.0298638,0,0,0,0,0,0,0,0,0,0,0,0
186.818,-0.00676781,-0.150175,-0.0970353,-0.00380943,-0.0151696,0.00126701,1.4935,-0.0838927,9.65072,-0.0765306,-0.699089,1.69036,0.0791812,-0.712321,1.68191,-0.155684,-0.68494,1.89838,0.158255,-0.689288,1.88612,0.00154628,-0.0104681,0.0138557,0.00203649,-0.00674056,0.0025346,-0.00278691,-0.0163434,0.039123,0.00465579,-0.0151073,0.0297166,0,0,0,0,0,0,0,0,0,0,0,0
186.819,-0.00677177,-0.15019,-0.097034,-0.0037663,-0.0147074,0.00115221,1.49278,-0.0838889,9.65324,-0.0765292,-0.699099,1.69037,0.0791832,-0.712328,1.68191,-0.155686,-0.684956,1.89842,0.15826,-0.689303,1.88615,0.00140238,-0.0105187,0.0145851,0.00198263,-0.00682017,0.00360971,-0.0027622,-0.0160447,0.0389741,0.00467617,-0.0146268,0.0295583,0,0,0,0,0,0,0,0,0,0,0,0
186.82,-0.00677565,-0.150204,-0.0970328,-0.00369974,-0.0142301,0.00111765,1.49139,-0.0854505,9.65547,-0.0765279,-0.69911,1.69039,0.0791852,-0.712335,1.68192,-0.155689,-0.684972,1.89846,0.158265,-0.689317,1.88618,0.00133873,-0.0105243,0.0153679,0.00197805,-0.00687104,0.00457332,-0.00274451,-0.0155715,0.038509,0.00468009,-0.0141805,0.0293823,0,0,0,0,0,0,0,0,0,0,0,0
186.821,-0.00677947,-0.150218,-0.0970317,-0.0036501,-0.0137797,0.00102212,1.49159,-0.0843123,9.65807,-0.0765267,-0.699121,1.6904,0.0791871,-0.712342,1.68192,-0.155692,-0.684987,1.8985,0.15827,-0.689331,1.8862,0.00122163,-0.0105244,0.0160118,0.00194029,-0.00692344,0.00554501,-0.00272261,-0.0152602,0.0383675,0.00469675,-0.0137238,0.0292373,0,0,0,0,0,0,0,0,0,0,0,0
186.822,-0.00678322,-0.150231,-0.0970306,-0.00358528,-0.0133644,0.000985263,1.49214,-0.08537,9.66185,-0.0765255,-0.699131,1.69042,0.0791891,-0.712349,1.68193,-0.155695,-0.685002,1.89854,0.158274,-0.689344,1.88623,0.00117179,-0.0104133,0.016421,0.00194672,-0.0069999,0.00641676,-0.0027132,-0.0149271,0.0382053,0.00469879,-0.0133643,0.0291343,0,0,0,0,0,0,0,0,0,0,0,0
186.822,-0.00678322,-0.150231,-0.0970306,-0.00358528,-0.0133644,0.000985263,1.49214,-0.08537,9.66185,-0.0765255,-0.699131,1.69042,0.0791891,-0.712349,1.68193,-0.155695,-0.685002,1.89854,0.158274,-0.689344,1.88623,0.00117179,-0.0104133,0.016421,0.00194672,-0.0069999,0.00641676,-0.0027132,-0.0149271,0.0382053,0.00469879,-0.0133643,0.0291343,0,0,0,0,0,0,0,0,0,0,0,0
186.823,-0.0067869,-0.150244,-0.0970295,-0.0035221,-0.013005,0.000973489,1.49376,-0.0857086,9.66612,-0.0765244,-0.699141,1.69044,0.079191,-0.712356,1.68194,-0.155697,-0.685016,1.89858,0.158279,-0.689357,1.88626,0.00113681,-0.0103403,0.016806,0.00195501,-0.00704175,0.007058,-0.00271771,-0.0146341,0.0380376,0.00468862,-0.0131035,0.0290901,0,0,0,0,0,0,0,0,0,0,0,0
186.824,-0.00679053,-0.150257,-0.0970285,-0.00347204,-0.0128183,0.000964727,1.50007,-0.0853865,9.67444,-0.0765233,-0.699152,1.69045,0.079193,-0.712363,1.68194,-0.1557,-0.685031,1.89861,0.158284,-0.68937,1.88629,0.00109623,-0.01033,0.0169011,0.00194679,-0.00709606,0.00731607,-0.00274566,-0.0146116,0.0381435,0.00467036,-0.0131031,0.0292403,0,0,0,0,0,0,0,0,0,0,0,0
186.825,-0.00679411,-0.15027,-0.0970273,-0.00341222,-0.0127317,0.00100701,1.50355,-0.0862035,9.68044,-0.0765222,-0.699162,1.69047,0.079195,-0.71237,1.68195,-0.155703,-0.685046,1.89865,0.158288,-0.689384,1.88632,0.00109164,-0.0105222,0.0172845,0.00204661,-0.00750632,0.00801659,-0.00278709,-0.0146186,0.0380859,0.00463959,-0.0132629,0.0294059,0,0,0,0,0,0,0,0,0,0,0,0
186.826,-0.00679765,-0.150282,-0.0970263,-0.00338094,-0.0126259,0.000965017,1.50196,-0.0846349,9.68313,-0.0765212,-0.699173,1.69049,0.079197,-0.712378,1.68196,-0.155706,-0.68506,1.89869,0.158293,-0.689397,1.88635,0.00102718,-0.0105878,0.0173535,0.00194975,-0.00750323,0.00805142,-0.00281086,-0.0146806,0.0380735,0.00462078,-0.0132957,0.029498,0,0,0,0,0,0,0,0,0,0,0,0
186.827,-0.00680114,-0.150295,-0.0970252,-0.00332934,-0.0125152,0.000973025,1.50113,-0.0856445,9.68507,-0.0765202,-0.699183,1.69051,0.0791989,-0.712386,1.68197,-0.155709,-0.685075,1.89873,0.158297,-0.68941,1.88638,0.00100214,-0.0107022,0.0176024,0.00197208,-0.0077225,0.00848215,-0.0028385,-0.0146715,0.0379931,0.00459499,-0.0133656,0.0295945,0,0,0,0,0,0,0,0,0,0,0,0
186.828,-0.00680458,-0.150307,-0.0970241,-0.00327531,-0.0123977,0.000992025,1.50006,-0.0858965,9.6874,-0.0765192,-0.699194,1.69052,0.0792009,-0.712393,1.68198,-0.155711,-0.68509,1.89877,0.158302,-0.689424,1.88641,0.000984315,-0.0108133,0.0178793,0.00201713,-0.00796942,0.0089717,-0.00286767,-0.0146312,0.0378815,0.00456407,-0.0134276,0.0296745,0,0,0,0,0,0,0,0,0,0,0,0
186.828,-0.00680458,-0.150307,-0.0970241,-0.00327531,-0.0123977,0.000992025,1.50006,-0.0858965,9.6874,-0.0765192,-0.699194,1.69052,0.0792009,-0.712393,1.68198,-0.155711,-0.68509,1.89877,0.158302,-0.689424,1.88641,0.000984315,-0.0108133,0.0178793,0.00201713,-0.00796942,0.0089717,-0.00286767,-0.0146312,0.0378815,0.00456407,-0.0134276,0.0296745,0,0,0,0,0,0,0,0,0,0,0,0
186.83,-0.00681132,-0.150332,-0.097022,-0.0031861,-0.0121271,0.000952208,1.49805,-0.085825,9.69149,-0.0765174,-0.699216,1.69056,0.0792048,-0.712409,1.682,-0.155717,-0.685119,1.89884,0.158311,-0.689451,1.88647,0.000900899,-0.0108835,0.0181207,0.0019327,-0.00805661,0.00933998,-0.00289858,-0.01456,0.0376587,0.00451708,-0.0133938,0.0297272,0,0,0,0,0,0,0,0,0,0,0,0
186.831,-0.00681461,-0.150344,-0.097021,-0.00312744,-0.0119857,0.000975011,1.4971,-0.0861064,9.69372,-0.0765165,-0.699227,1.69058,0.0792068,-0.712418,1.68201,-0.15572,-0.685133,1.89888,0.158316,-0.689464,1.8865,0.000890074,-0.0109505,0.0183819,0.00198751,-0.00827216,0.0098307,-0.00291988,-0.0144562,0.0374818,0.00448327,-0.0134002,0.0297473,0,0,0,0,0,0,0,0,0,0,0,0
186.831,-0.00681461,-0.150344,-0.097021,-0.00312744,-0.0119857,0.000975011,1.4971,-0.0861064,9.69372,-0.0765165,-0.699227,1.69058,0.0792068,-0.712418,1.68201,-0.15572,-0.685133,1.89888,0.158316,-0.689464,1.8865,0.000890074,-0.0109505,0.0183819,0.00198751,-0.00827216,0.0098307,-0.00291988,-0.0144562,0.0374818,0.00448327,-0.0134002,0.0297473,0,0,0,0,0,0,0,0,0,0,0,0
186.832,-0.00681785,-0.150356,-0.09702,-0.0030937,-0.0118279,0.00091979,1.49583,-0.0846539,9.69601,-0.0765156,-0.699238,1.6906,0.0792086,-0.712426,1.68202,-0.155723,-0.685148,1.89892,0.15832,-0.689477,1.88653,0.000825936,-0.0109143,0.0183827,0.00185847,-0.0081016,0.00969666,-0.00292283,-0.0144002,0.0373252,0.00446245,-0.01329,0.0296968,0,0,0,0,0,0,0,0,0,0,0,0
186.833,-0.00682104,-0.150367,-0.0970189,-0.00303367,-0.01167,0.000929518,1.4953,-0.0859592,9.69752,-0.0765148,-0.699249,1.69062,0.0792105,-0.712434,1.68203,-0.155726,-0.685162,1.89895,0.158324,-0.68949,1.88656,0.000811419,-0.0109319,0.0185715,0.00189061,-0.00824538,0.0101117,-0.00293294,-0.0142731,0.0371252,0.00443323,-0.0132444,0.0296722,0,0,0,0,0,0,0,0,0,0,0,0
186.834,-0.00682417,-0.150379,-0.0970179,-0.00297166,-0.0115089,0.00095399,1.49445,-0.086269,9.69963,-0.076514,-0.69926,1.69063,0.0792125,-0.712442,1.68204,-0.155729,-0.685176,1.89899,0.158329,-0.689504,1.88659,0.000805473,-0.0109581,0.0188099,0.00195034,-0.00842624,0.0105892,-0.00294718,-0.0141162,0.0368926,0.00439689,-0.0132012,0.0296386,0,0,0,0,0,0,0,0,0,0,0,0
186.835,-0.00682724,-0.15039,-0.0970168,-0.00291572,-0.0113436,0.000972636,1.49354,-0.0861657,9.70188,-0.0765132,-0.699271,1.69065,0.0792144,-0.712451,1.68205,-0.155732,-0.68519,1.89903,0.158333,-0.689517,1.88662,0.000794059,-0.0109698,0.0190312,0.00197206,-0.00853821,0.0109713,-0.00296286,-0.0139519,0.0366504,0.00435612,-0.0131375,0.0295899,0,0,0,0,0,0,0,0,0,0,0,0
186.835,-0.00682724,-0.15039,-0.0970168,-0.00291572,-0.0113436,0.000972636,1.49354,-0.0861657,9.70188,-0.0765132,-0.699271,1.69065,0.0792144,-0.712451,1.68205,-0.155732,-0.68519,1.89903,0.158333,-0.689517,1.88662,0.000794059,-0.0109698,0.0190312,0.00197206,-0.00853821,0.0109713,-0.00296286,-0.0139519,0.0366504,0.00435612,-0.0131375,0.0295899,0,0,0,0,0,0,0,0,0,0,0,0
186.836,-0.00683027,-0.150401,-0.0970158,-0.00288035,-0.0111619,0.000915368,1.49245,-0.0847968,9.7039,-0.0765125,-0.699282,1.69067,0.0792163,-0.712459,1.68206,-0.155735,-0.685204,1.89906,0.158338,-0.68953,1.88665,0.00073262,-0.0108999,0.0190431,0.00184185,-0.00830821,0.010778,-0.00295375,-0.0138012,0.0362981,0.00433191,-0.0129477,0.0294328,0,0,0,0,0,0,0,0,0,0,0,0
186.837,-0.00683325,-0.150412,-0.0970148,-0.0028202,-0.0109842,0.000922108,1.49204,-0.0860515,9.70509,-0.0765118,-0.699292,1.69069,0.0792181,-0.712468,1.68207,-0.155738,-0.685217,1.8991,0.158342,-0.689543,1.88668,0.00071819,-0.0108587,0.0191684,0.00186957,-0.00840054,0.0111572,-0.00295802,-0.0136242,0.0360552,0.00429843,-0.0128405,0.0293415,0,0,0,0,0,0,0,0,0,0,0,0
186.838,-0.00683616,-0.150423,-0.0970138,-0.00275794,-0.010805,0.00094531,1.49135,-0.0863789,9.70706,-0.0765111,-0.699303,1.69071,0.0792201,-0.712476,1.68208,-0.155741,-0.685231,1.89913,0.158346,-0.689555,1.88671,0.00071364,-0.0108329,0.0193567,0.00192411,-0.0085244,0.0115803,-0.00296681,-0.0134159,0.0357689,0.00425738,-0.0127413,0.0292471,0,0,0,0,0,0,0,0,0,0,0,0
186.839,-0.00683902,-0.150434,-0.0970127,-0.00270029,-0.0106234,0.000966361,1.49058,-0.0863442,9.70911,-0.0765104,-0.699314,1.69073,0.079222,-0.712485,1.68209,-0.155744,-0.685244,1.89917,0.15835,-0.689568,1.88674,0.000705875,-0.0107981,0.0195373,0.00195482,-0.00860173,0.0119354,-0.00297758,-0.0131985,0.0354685,0.00421159,-0.0126286,0.0291406,0,0,0,0,0,0,0,0,0,0,0,0
186.84,-0.00684182,-0.150444,-0.0970117,-0.0026468,-0.0104389,0.000981299,1.48983,-0.0862357,9.71105,-0.0765097,-0.699325,1.69075,0.079224,-0.712493,1.68211,-0.155747,-0.685257,1.89921,0.158354,-0.68958,1.88676,0.00069338,-0.0107471,0.0196905,0.00195805,-0.00862656,0.0122166,-0.00298793,-0.0129767,0.0351613,0.00416353,-0.0124978,0.0290189,0,0,0,0,0,0,0,0,0,0,0,0
186.841,-0.00684458,-0.150454,-0.0970106,-0.00259395,-0.0102517,0.000994822,1.48913,-0.0862284,9.71285,-0.076509,-0.699335,1.69077,0.0792259,-0.712502,1.68212,-0.15575,-0.68527,1.89924,0.158359,-0.689593,1.88679,0.000680011,-0.0106818,0.0198217,0.00195918,-0.00863733,0.0124798,-0.00299693,-0.0127459,0.0348428,0.00411417,-0.0123541,0.0288814,0,0,0,0,0,0,0,0,0,0,0,0
186.842,-0.00684728,-0.150464,-0.0970095,-0.00254153,-0.0100622,0.00100788,1.48848,-0.0862341,9.71459,-0.0765083,-0.699346,1.69079,0.0792279,-0.712511,1.68213,-0.155753,-0.685282,1.89927,0.158363,-0.689605,1.88682,0.000666493,-0.0106049,0.0199369,0.00195906,-0.00863621,0.0127278,-0.00300486,-0.0125055,0.0345119,0.00406335,-0.0121995,0.0287297,0,0,0,0,0,0,0,0,0,0,0,0
186.843,-0.00684994,-0.150474,-0.0970084,-0.00248949,-0.00987075,0.00102062,1.48786,-0.0862393,9.71629,-0.0765077,-0.699357,1.69081,0.0792299,-0.712519,1.68214,-0.155756,-0.685294,1.89931,0.158367,-0.689617,1.88685,0.000652941,-0.0105174,0.0200378,0.00195787,-0.00862401,0.0129613,-0.00301178,-0.0122561,0.0341689,0.0040111,-0.012035,0.0285649,0,0,0,0,0,0,0,0,0,0,0,0
186.843,-0.00684994,-0.150474,-0.0970084,-0.00248949,-0.00987075,0.00102062,1.48786,-0.0862393,9.71629,-0.0765077,-0.699357,1.69081,0.0792299,-0.712519,1.68214,-0.155756,-0.685294,1.89931,0.158367,-0.689617,1.88685,0.000652941,-0.0105174,0.0200378,0.00195787,-0.00862401,0.0129613,-0.00301178,-0.0122561,0.0341689,0.0040111,-0.012035,0.0285649,0,0,0,0,0,0,0,0,0,0,0,0
186.844,-0.00685254,-0.150484,-0.0970073,-0.00243783,-0.00967768,0.00103304,1.48726,-0.0862414,9.71794,-0.076507,-0.699367,1.69083,0.0792318,-0.712528,1.68216,-0.155759,-0.685306,1.89934,0.158371,-0.689629,1.88688,0.000639358,-0.0104199,0.0201246,0.00195562,-0.0086013,0.0131806,-0.00301773,-0.0119984,0.0338144,0.00395749,-0.0118611,0.0283874,0,0,0,0,0,0,0,0,0,0,0,0
186.845,-0.0068551,-0.150493,-0.0970062,-0.00238705,-0.00948282,0.0010425,1.48669,-0.0861944,9.71953,-0.0765064,-0.699377,1.69085,0.0792338,-0.712537,1.68217,-0.155762,-0.685318,1.89938,0.158375,-0.689641,1.88691,0.000623849,-0.0103092,0.0201872,0.0019507,-0.00855631,0.0133579,-0.00302188,-0.0117352,0.0334509,0.00390336,-0.0116752,0.0281959,0,0,0,0,0,0,0,0,0,0,0,0
186.846,-0.0068576,-0.150503,-0.0970051,-0.00233683,-0.00928633,0.00104925,1.48615,-0.0861535,9.72105,-0.0765058,-0.699387,1.69087,0.0792357,-0.712545,1.68218,-0.155765,-0.68533,1.89941,0.158378,-0.689652,1.88693,0.000606806,-0.0101861,0.0202271,0.00194359,-0.00849309,0.0135025,-0.00302408,-0.0114668,0.0330792,0.00384898,-0.011478,0.0279911,0,0,0,0,0,0,0,0,0,0,0,0
186.847,-0.00686006,-0.150512,-0.0970039,-0.00228655,-0.0090888,0.00105545,1.48565,-0.0861512,9.72251,-0.0765052,-0.699398,1.69089,0.0792376,-0.712553,1.6822,-0.155768,-0.685341,1.89944,0.158382,-0.689663,1.88696,0.000589933,-0.0100545,0.0202543,0.00193593,-0.00842276,0.0136395,-0.00302491,-0.011192,0.0326982,0.00379397,-0.0112729,0.0277754,0,0,0,0,0,0,0,0,0,0,0,0
186.848,-0.00686246,-0.150521,-0.0970028,-0.00223622,-0.00889058,0.00106141,1.48519,-0.0861512,9.72393,-0.0765046,-0.699407,1.69091,0.0792396,-0.712562,1.68221,-0.155771,-0.685352,1.89947,0.158386,-0.689674,1.88699,0.000573397,-0.00991565,0.020271,0.00192794,-0.0083459,0.0137687,-0.00302455,-0.0109111,0.0323079,0.00373822,-0.011061,0.0275498,0,0,0,0,0,0,0,0,0,0,0,0
186.849,-0.00686482,-0.150529,-0.0970016,-0.0021859,-0.008692,0.00106714,1.48475,-0.0861485,9.72532,-0.0765041,-0.699417,1.69093,0.0792415,-0.71257,1.68222,-0.155774,-0.685362,1.89951,0.15839,-0.689685,1.88702,0.000557156,-0.00977002,0.0202775,0.00191955,-0.00826286,0.01389,-0.0030231,-0.0106245,0.0319087,0.00368174,-0.0108428,0.0273148,0,0,0,0,0,0,0,0,0,0,0,0
186.85,-0.00686713,-0.150538,-0.0970005,-0.00213564,-0.00849335,0.00107262,1.48433,-0.0861425,9.72666,-0.0765035,-0.699427,1.69095,0.0792434,-0.712578,1.68224,-0.155777,-0.685373,1.89954,0.158393,-0.689696,1.88704,0.000541142,-0.00961805,0.0202739,0.00191069,-0.00817389,0.0140032,-0.00302064,-0.010333,0.0315013,0.00362453,-0.0106191,0.0270709,0,0,0,0,0,0,0,0,0,0,0,0
186.851,-0.00686939,-0.150546,-0.0969994,-0.0020855,-0.0082949,0.0010778,1.48394,-0.086133,9.72797,-0.076503,-0.699436,1.69097,0.0792453,-0.712586,1.68225,-0.15578,-0.685383,1.89957,0.158397,-0.689706,1.88707,0.000525292,-0.00946011,0.0202601,0.00190128,-0.00807927,0.0141081,-0.00301724,-0.0100372,0.0310862,0.00356661,-0.0103902,0.0268186,0,0,0,0,0,0,0,0,0,0,0,0
186.851,-0.00686939,-0.150546,-0.0969994,-0.0020855,-0.0082949,0.0010778,1.48394,-0.086133,9.72797,-0.076503,-0.699436,1.69097,0.0792453,-0.712586,1.68225,-0.15578,-0.685383,1.89957,0.158397,-0.689706,1.88707,0.000525292,-0.00946011,0.0202601,0.00190128,-0.00807927,0.0141081,-0.00301724,-0.0100372,0.0310862,0.00356661,-0.0103902,0.0268186,0,0,0,0,0,0,0,0,0,0,0,0
186.852,-0.00687159,-0.150554,-0.0969982,-0.00203551,-0.00809693,0.00108265,1.48357,-0.08612,9.72923,-0.0765025,-0.699446,1.69099,0.0792472,-0.712594,1.68227,-0.155783,-0.685392,1.8996,0.1584,-0.689716,1.8871,0.000509551,-0.00929658,0.0202362,0.00189127,-0.00797926,0.0142045,-0.00301296,-0.00973757,0.030664,0.00350802,-0.0101566,0.0265584,0,0,0,0,0,0,0,0,0,0,0,0
186.853,-0.00687375,-0.150562,-0.0969971,-0.00198589,-0.00789947,0.00108607,1.48323,-0.0860857,9.73046,-0.076502,-0.699455,1.69101,0.0792491,-0.712602,1.68228,-0.155786,-0.685402,1.89963,0.158404,-0.689726,1.88712,0.000493093,-0.00912553,0.0201961,0.00187977,-0.0078698,0.0142842,-0.00300742,-0.00943509,0.0302338,0.00344912,-0.00991753,0.0262898,0,0,0,0,0,0,0,0,0,0,0,0
186.854,-0.00687586,-0.15057,-0.0969959,-0.00193651,-0.00770289,0.0010888,1.48291,-0.0860609,9.73163,-0.0765015,-0.699464,1.69103,0.0792509,-0.71261,1.6823,-0.155789,-0.685411,1.89966,0.158407,-0.689736,1.88715,0.000476454,-0.0089491,0.0201446,0.00186739,-0.007755,0.0143548,-0.00300098,-0.00913022,0.0297979,0.00338974,-0.00967437,0.026014,0,0,0,0,0,0,0,0,0,0,0,0
186.855,-0.00687792,-0.150577,-0.0969947,-0.00188732,-0.00750745,0.00109111,1.48261,-0.086038,9.73277,-0.0765011,-0.699472,1.69105,0.0792528,-0.712618,1.68231,-0.155792,-0.68542,1.89969,0.15841,-0.689745,1.88718,0.000459834,-0.00876832,0.0200838,0.00185435,-0.00763604,0.0144178,-0.00299379,-0.0088233,0.0293568,0.00332985,-0.00942803,0.0257317,0,0,0,0,0,0,0,0,0,0,0,0
186.856,-0.00687994,-0.150584,-0.0969936,-0.00183835,-0.00731341,0.00109304,1.48234,-0.0860125,9.73387,-0.0765006,-0.699481,1.69107,0.0792546,-0.712625,1.68232,-0.155795,-0.685428,1.89972,0.158414,-0.689755,1.8872,0.000443232,-0.00858363,0.0200138,0.00184064,-0.00751317,0.0144731,-0.00298588,-0.00851477,0.0289109,0.00326946,-0.00917901,0.0254435,0,0,0,0,0,0,0,0,0,0,0,0
186.857,-0.0068819,-0.150592,-0.0969924,-0.00178961,-0.00712096,0.00109456,1.48208,-0.0859838,9.73494,-0.0765002,-0.699489,1.69109,0.0792565,-0.712632,1.68234,-0.155798,-0.685437,1.89975,0.158417,-0.689764,1.88723,0.000426624,-0.00839534,0.0199346,0.00182623,-0.00738664,0.0145205,-0.00297731,-0.00820512,0.0284607,0.00320862,-0.00892776,0.0251497,0,0,0,0,0,0,0,0,0,0,0,0
186.858,-0.00688381,-0.150599,-0.0969913,-0.00174112,-0.00693031,0.00109559,1.48185,-0.0859511,9.73597,-0.0764998,-0.699498,1.69111,0.0792583,-0.71264,1.68235,-0.155801,-0.685444,1.89977,0.15842,-0.689772,1.88725,0.000409948,-0.00820354,0.0198459,0.00181106,-0.00725634,0.0145593,-0.00296807,-0.00789479,0.0280063,0.00314739,-0.00867463,0.0248509,0,0,0,0,0,0,0,0,0,0,0,0
186.859,-0.00688568,-0.150605,-0.0969901,-0.00169655,-0.00674178,0.00108745,1.4815,-0.0857046,9.73675,-0.0764994,-0.699506,1.69113,0.0792601,-0.712647,1.68237,-0.155804,-0.685452,1.8998,0.158423,-0.689781,1.88728,0.000384701,-0.007975,0.0196569,0.00178627,-0.00711124,0.0145815,-0.00296481,-0.0076614,0.027824,0.00308583,-0.00842569,0.0245819,0,0,0,0,0,0,0,0,0,0,0,0
186.859,-0.00688568,-0.150605,-0.0969901,-0.00169655,-0.00674178,0.00108745,1.4815,-0.0857046,9.73675,-0.0764994,-0.699506,1.69113,0.0792601,-0.712647,1.68237,-0.155804,-0.685452,1.8998,0.158423,-0.689781,1.88728,0.000384701,-0.007975,0.0196569,0.00178627,-0.00711124,0.0145815,-0.00296481,-0.0076614,0.027824,0.00308583,-0.00842569,0.0245819,0,0,0,0,0,0,0,0,0,0,0,0
186.86,-0.0068875,-0.150612,-0.096989,-0.00164666,-0.00655241,0.00108732,1.48138,-0.0859008,9.73804,-0.076499,-0.699513,1.69115,0.0792618,-0.712654,1.68238,-0.155807,-0.685459,1.89983,0.158426,-0.689789,1.8873,0.000369349,-0.00777582,0.0195538,0.00177147,-0.00697263,0.0146065,-0.0029499,-0.00734196,0.0273413,0.00302528,-0.00816513,0.0242683,0,0,0,0,0,0,0,0,0,0,0,0
186.861,-0.00688927,-0.150618,-0.0969878,-0.00159695,-0.0063659,0.0010886,1.48123,-0.0858952,9.73896,-0.0764987,-0.699521,1.69117,0.0792636,-0.712661,1.6824,-0.15581,-0.685467,1.89986,0.158429,-0.689797,1.88732,0.000355073,-0.00757813,0.0194518,0.00175729,-0.00683253,0.0146226,-0.00293532,-0.00702083,0.0268505,0.00296368,-0.00790683,0.0239532,0,0,0,0,0,0,0,0,0,0,0,0
186.862,-0.00689099,-0.150624,-0.0969867,-0.00154779,-0.00618221,0.00108953,1.48108,-0.0858562,9.73984,-0.0764983,-0.699528,1.69119,0.0792653,-0.712667,1.68241,-0.155813,-0.685473,1.89988,0.158432,-0.689804,1.88735,0.000340558,-0.00737867,0.0193412,0.00174213,-0.00669018,0.0146304,-0.0029208,-0.00670146,0.0263593,0.00290151,-0.00764891,0.0236352,0,0,0,0,0,0,0,0,0,0,0,0
186.863,-0.00689266,-0.15063,-0.0969855,-0.00149919,-0.00600144,0.0010899,1.48094,-0.0858104,9.74069,-0.076498,-0.699535,1.69121,0.0792671,-0.712674,1.68243,-0.155816,-0.68548,1.89991,0.158435,-0.689812,1.88737,0.000325679,-0.0071772,0.0192209,0.00172583,-0.00654564,0.0146301,-0.00290624,-0.00638444,0.0258685,0.00283892,-0.00739139,0.0233144,0,0,0,0,0,0,0,0,0,0,0,0
186.864,-0.00689428,-0.150636,-0.0969844,-0.00145114,-0.0058237,0.00108966,1.48083,-0.0857612,9.7415,-0.0764977,-0.699542,1.69123,0.0792688,-0.71268,1.68244,-0.155818,-0.685486,1.89993,0.158438,-0.689819,1.88739,0.000310451,-0.00697393,0.0190909,0.0017084,-0.0063991,0.0146216,-0.00289161,-0.00607007,0.0253784,0.00277598,-0.00713455,0.022991,0,0,0,0,0,0,0,0,0,0,0,0
186.865,-0.00689586,-0.150642,-0.0969833,-0.00140359,-0.00564911,0.00108882,1.48073,-0.0857089,9.74228,-0.0764974,-0.699549,1.69125,0.0792705,-0.712686,1.68246,-0.155821,-0.685491,1.89996,0.15844,-0.689826,1.88742,0.000294902,-0.0067691,0.0189514,0.00168988,-0.00625074,0.014605,-0.00287687,-0.00575861,0.0248892,0.00271278,-0.00687866,0.0226654,0,0,0,0,0,0,0,0,0,0,0,0
186.865,-0.00689586,-0.150642,-0.0969833,-0.00140359,-0.00564911,0.00108882,1.48073,-0.0857089,9.74228,-0.0764974,-0.699549,1.69125,0.0792705,-0.712686,1.68246,-0.155821,-0.685491,1.89996,0.15844,-0.689826,1.88742,0.000294902,-0.0067691,0.0189514,0.00168988,-0.00625074,0.014605,-0.00287687,-0.00575861,0.0248892,0.00271278,-0.00687866,0.0226654,0,0,0,0,0,0,0,0,0,0,0,0
186.866,-0.00689738,-0.150647,-0.0969821,-0.00135677,-0.00547726,0.00108169,1.48062,-0.0855695,9.74305,-0.0764971,-0.699556,1.69127,0.0792721,-0.712693,1.68247,-0.155824,-0.685497,1.89998,0.158443,-0.689832,1.88744,0.000279456,-0.0065177,0.018679,0.0016662,-0.00609786,0.0145827,-0.00285949,-0.00545576,0.0244056,0.00265181,-0.00661727,0.0223331,0,0,0,0,0,0,0,0,0,0,0,0
186.867,-0.00689886,-0.150653,-0.096981,-0.00131171,-0.00530817,0.00107436,1.48058,-0.0854882,9.74366,-0.0764969,-0.699562,1.69129,0.0792738,-0.712699,1.68249,-0.155827,-0.685502,1.90001,0.158446,-0.689839,1.88746,0.000262068,-0.00627158,0.0184157,0.00164059,-0.00594358,0.0145529,-0.00284343,-0.00515595,0.0239245,0.00258929,-0.00635716,0.0219988,0,0,0,0,0,0,0,0,0,0,0,0
186.868,-0.0069003,-0.150658,-0.0969799,-0.00126777,-0.00514247,0.00107143,1.48057,-0.085476,9.74425,-0.0764966,-0.699568,1.6913,0.0792754,-0.712704,1.6825,-0.15583,-0.685507,1.90003,0.158448,-0.689845,1.88748,0.000243308,-0.00606384,0.0182512,0.00161681,-0.00579053,0.0145138,-0.00283024,-0.00485469,0.0234409,0.00252369,-0.00610428,0.0216669,0,0,0,0,0,0,0,0,0,0,0,0
186.869,-0.00690169,-0.150663,-0.0969788,-0.00122393,-0.00498034,0.00106836,1.48053,-0.085417,9.74491,-0.0764964,-0.699574,1.69132,0.079277,-0.71271,1.68251,-0.155833,-0.685511,1.90005,0.158451,-0.689851,1.8875,0.000224985,-0.00585607,0.0180795,0.00159275,-0.00563674,0.0144668,-0.00281673,-0.00455654,0.0229572,0.00245816,-0.00585408,0.0213346,0,0,0,0,0,0,0,0,0,0,0,0
186.87,-0.00690304,-0.150667,-0.0969777,-0.00118029,-0.00482178,0.00106463,1.4805,-0.0853465,9.74553,-0.0764962,-0.69958,1.69134,0.0792785,-0.712715,1.68253,-0.155835,-0.685516,1.90008,0.158453,-0.689856,1.88753,0.000206702,-0.00564701,0.0178969,0.00156791,-0.005482,0.0144122,-0.00280277,-0.00426245,0.0224751,0.00239289,-0.00560607,0.0210015,0,0,0,0,0,0,0,0,0,0,0,0
186.871,-0.00690434,-0.150672,-0.0969766,-0.0011369,-0.00466686,0.00106028,1.48049,-0.0852739,9.74611,-0.076496,-0.699585,1.69136,0.0792801,-0.712721,1.68254,-0.155838,-0.68552,1.9001,0.158455,-0.689862,1.88755,0.000188381,-0.00543782,0.0177062,0.00154232,-0.00532655,0.0143499,-0.00278845,-0.00397259,0.0219948,0.00232785,-0.00536053,0.0206678,0,0,0,0,0,0,0,0,0,0,0,0
186.872,-0.0069056,-0.150677,-0.0969755,-0.00109373,-0.00451563,0.00105535,1.48049,-0.0851993,9.74667,-0.0764958,-0.69959,1.69137,0.0792816,-0.712726,1.68256,-0.155841,-0.685523,1.90012,0.158458,-0.689867,1.88757,0.000170039,-0.0052288,0.0175079,0.00151603,-0.00517055,0.0142803,-0.00277376,-0.00368711,0.0215166,0.00226307,-0.00511768,0.0203338,0,0,0,0,0,0,0,0,0,0,0,0
186.873,-0.00690681,-0.150681,-0.0969744,-0.00105018,-0.00436835,0.00105169,1.48052,-0.0851618,9.74722,-0.0764957,-0.699595,1.69139,0.0792831,-0.712731,1.68257,-0.155844,-0.685527,1.90014,0.15846,-0.689872,1.88759,0.000153223,-0.00502206,0.017308,0.00149048,-0.00501512,0.0142032,-0.00275801,-0.00339903,0.0210141,0.00219827,-0.00487999,0.0200015,0,0,0,0,0,0,0,0,0,0,0,0
186.873,-0.00690681,-0.150681,-0.0969744,-0.00105018,-0.00436835,0.00105169,1.48052,-0.0851618,9.74722,-0.0764957,-0.699595,1.69139,0.0792831,-0.712731,1.68257,-0.155844,-0.685527,1.90014,0.15846,-0.689872,1.88759,0.000153223,-0.00502206,0.017308,0.00149048,-0.00501512,0.0142032,-0.00275801,-0.00339903,0.0210141,0.00219827,-0.00487999,0.0200015,0,0,0,0,0,0,0,0,0,0,0,0
186.874,-0.00690798,-0.150685,-0.0969733,-0.0010062,-0.00422538,0.00105017,1.48057,-0.085138,9.74776,-0.0764955,-0.6996,1.69141,0.0792846,-0.712736,1.68259,-0.155847,-0.68553,1.90016,0.158462,-0.689876,1.88761,0.000138627,-0.00481718,0.0171051,0.00146613,-0.00486092,0.0141185,-0.00274128,-0.00310565,0.0204754,0.00213314,-0.00464901,0.0196721,0,0,0,0,0,0,0,0,0,0,0,0
186.875,-0.00690911,-0.150689,-0.0969722,-0.000973315,-0.00408185,0.00101022,1.48027,-0.0843,9.74773,-0.0764954,-0.699605,1.69143,0.079286,-0.71274,1.6826,-0.155849,-0.685533,1.90018,0.158464,-0.689881,1.88763,9.35291e-05,-0.004548,0.0167113,0.00140691,-0.00468493,0.0140367,-0.00272789,-0.00293393,0.0203155,0.00207573,-0.00437865,0.0193199,0,0,0,0,0,0,0,0,0,0,0,0
186.876,-0.0069102,-0.150693,-0.0969712,-0.000929379,-0.00394388,0.00100827,1.48059,-0.08495,9.74857,-0.0764954,-0.699609,1.69144,0.0792873,-0.712745,1.68261,-0.155852,-0.685535,1.9002,0.158466,-0.689885,1.88764,7.48869e-05,-0.00439199,0.0166285,0.00138328,-0.00453015,0.0139394,-0.00271089,-0.00265635,0.0198298,0.00201124,-0.00415144,0.0189888,0,0,0,0,0,0,0,0,0,0,0,0
186.877,-0.00691124,-0.150697,-0.0969701,-0.000883861,-0.00381062,0.00100286,1.48062,-0.0848662,9.74913,-0.0764953,-0.699613,1.69146,0.0792887,-0.712749,1.68263,-0.155855,-0.685538,1.90022,0.158468,-0.689889,1.88766,6.09381e-05,-0.00419173,0.0164139,0.00135878,-0.00437458,0.013836,-0.00269038,-0.00238571,0.0193417,0.00195023,-0.00392587,0.0186578,0,0,0,0,0,0,0,0,0,0,0,0
186.878,-0.00691224,-0.150701,-0.0969691,-0.000838944,-0.00368137,0.000995586,1.48068,-0.0847655,9.74951,-0.0764953,-0.699617,1.69147,0.07929,-0.712754,1.68264,-0.155857,-0.68554,1.90024,0.15847,-0.689892,1.88768,4.64869e-05,-0.00398463,0.0161704,0.00133233,-0.00421869,0.013726,-0.00266952,-0.00212249,0.0188602,0.00188985,-0.0037027,0.0183268,0,0,0,0,0,0,0,0,0,0,0,0
186.879,-0.00691318,-0.150704,-0.0969681,-0.000794688,-0.00355614,0.000987672,1.48077,-0.0846767,9.74986,-0.0764952,-0.699621,1.69149,0.0792913,-0.712758,1.68265,-0.15586,-0.685542,1.90026,0.158472,-0.689896,1.8877,3.14721e-05,-0.00377943,0.0159218,0.00130475,-0.0040632,0.0136092,-0.00264894,-0.0018654,0.0183838,0.0018295,-0.00348341,0.017997,0,0,0,0,0,0,0,0,0,0,0,0
186.88,-0.00691409,-0.150708,-0.0969671,-0.000750983,-0.00343494,0.00097919,1.48086,-0.0845873,9.75018,-0.0764952,-0.699625,1.69151,0.0792926,-0.712762,1.68267,-0.155863,-0.685543,1.90028,0.158473,-0.689899,1.88772,1.60893e-05,-0.00357599,0.0156676,0.00127621,-0.00390829,0.0134858,-0.00262854,-0.00161434,0.0179122,0.00176929,-0.0032682,0.0176686,0,0,0,0,0,0,0,0,0,0,0,0
186.88,-0.00691409,-0.150708,-0.0969671,-0.000750983,-0.00343494,0.00097919,1.48086,-0.0845873,9.75018,-0.0764952,-0.699625,1.69151,0.0792926,-0.712762,1.68267,-0.155863,-0.685543,1.90028,0.158473,-0.689899,1.88772,1.60893e-05,-0.00357599,0.0156676,0.00127621,-0.00390829,0.0134858,-0.00262854,-0.00161434,0.0179122,0.00176929,-0.0032682,0.0176686,0,0,0,0,0,0,0,0,0,0,0,0
186.881,-0.00691495,-0.150711,-0.0969661,-0.000707766,-0.00331777,0.000970119,1.48096,-0.0844957,9.75047,-0.0764952,-0.699628,1.69152,0.0792939,-0.712765,1.68268,-0.155865,-0.685545,1.90029,0.158475,-0.689902,1.88773,4.13101e-07,-0.00337416,0.0154073,0.00124678,-0.00375406,0.013356,-0.00260824,-0.00136939,0.0174453,0.0017093,-0.00305715,0.0173417,0,0,0,0,0,0,0,0,0,0,0,0
186.882,-0.00691576,-0.150714,-0.0969651,-0.000664439,-0.00320479,0.000962216,1.48108,-0.0844391,9.75076,-0.0764952,-0.699631,1.69154,0.0792951,-0.712769,1.68269,-0.155868,-0.685546,1.90031,0.158477,-0.689905,1.88775,-1.40679e-05,-0.00317587,0.0151468,0.00121787,-0.00360152,0.0132199,-0.00258735,-0.00112385,0.0169582,0.0016493,-0.00285248,0.0170181,0,0,0,0,0,0,0,0,0,0,0,0
186.883,-0.00691653,-0.150717,-0.0969641,-0.00062077,-0.00309636,0.000956777,1.48124,-0.0844054,9.75105,-0.0764953,-0.699634,1.69155,0.0792963,-0.712772,1.68271,-0.15587,-0.685547,1.90033,0.158478,-0.689908,1.88777,-2.62771e-05,-0.00298114,0.014886,0.0011903,-0.0034515,0.0130773,-0.00256572,-0.000873157,0.0164326,0.00158893,-0.00265614,0.0166993,0,0,0,0,0,0,0,0,0,0,0,0
186.884,-0.00691725,-0.15072,-0.0969631,-0.000578229,-0.00299239,0.000950409,1.48137,-0.0842916,9.75124,-0.0764953,-0.699637,1.69157,0.0792974,-0.712776,1.68272,-0.155873,-0.685547,1.90034,0.15848,-0.68991,1.88778,-3.92238e-05,-0.00278524,0.0146097,0.001161,-0.00330249,0.0129283,-0.00254525,-0.000631252,0.0159181,0.00152844,-0.00246448,0.0163826,0,0,0,0,0,0,0,0,0,0,0,0
186.885,-0.00691794,-0.150723,-0.0969621,-0.000536972,-0.00289266,0.000942608,1.48151,-0.0841621,9.75138,-0.0764953,-0.699639,1.69158,0.0792986,-0.712779,1.68273,-0.155875,-0.685548,1.90036,0.158481,-0.689912,1.8878,-5.36414e-05,-0.00259018,0.0143235,0.00112958,-0.00315424,0.0127731,-0.00252598,-0.000399482,0.0154196,0.00146795,-0.00227673,0.0160675,0,0,0,0,0,0,0,0,0,0,0,0
186.886,-0.00691858,-0.150726,-0.0969612,-0.000510412,-0.00278995,0.000882012,1.48119,-0.0830247,9.7509,-0.0764955,-0.699642,1.69159,0.0792996,-0.712782,1.68275,-0.155878,-0.685548,1.90037,0.158483,-0.689915,1.88782,-0.000110254,-0.00231736,0.0138055,0.00105181,-0.00297915,0.0126275,-0.00251023,-0.00031747,0.0153893,0.00141894,-0.00202864,0.0157082,0,0,0,0,0,0,0,0,0,0,0,0
186.887,-0.00691919,-0.150729,-0.0969603,-0.000469076,-0.00269363,0.000871451,1.4817,-0.083882,9.75157,-0.0764956,-0.699644,1.69161,0.0793006,-0.712785,1.68276,-0.15588,-0.685548,1.90039,0.158484,-0.689916,1.88783,-0.000132163,-0.00218621,0.0136804,0.00101957,-0.00282881,0.0124599,-0.00248876,-0.000104058,0.0149483,0.00136092,-0.00184233,0.0153918,0,0,0,0,0,0,0,0,0,0,0,0
186.888,-0.00691975,-0.150731,-0.0969594,-0.000424817,-0.00260252,0.00086033,1.48184,-0.0838393,9.75188,-0.0764957,-0.699646,1.69162,0.0793016,-0.712787,1.68277,-0.155883,-0.685548,1.9004,0.158485,-0.689918,1.88785,-0.000145672,-0.00201163,0.0134242,0.000989787,-0.00267931,0.0122835,-0.00246378,0.00010581,0.0144964,0.00130654,-0.00166273,0.0150805,0,0,0,0,0,0,0,0,0,0,0,0
186.888,-0.00691975,-0.150731,-0.0969594,-0.000424817,-0.00260252,0.00086033,1.48184,-0.0838393,9.75188,-0.0764957,-0.699646,1.69162,0.0793016,-0.712787,1.68277,-0.155883,-0.685548,1.9004,0.158485,-0.689918,1.88785,-0.000145672,-0.00201163,0.0134242,0.000989787,-0.00267931,0.0122835,-0.00246378,0.00010581,0.0144964,0.00130654,-0.00166273,0.0150805,0,0,0,0,0,0,0,0,0,0,0,0
186.889,-0.00692026,-0.150734,-0.0969585,-0.000380602,-0.0025154,0.000847433,1.48199,-0.0837323,9.752,-0.0764959,-0.699648,1.69163,0.0793026,-0.71279,1.68278,-0.155885,-0.685548,1.90042,0.158487,-0.68992,1.88786,-0.000158431,-0.0018253,0.0131244,0.000959278,-0.00253484,0.0121128,-0.00243799,0.000308153,0.0140495,0.00125351,-0.00148666,0.0147711,0,0,0,0,0,0,0,0,0,0,0,0
186.89,-0.00692073,-0.150736,-0.0969577,-0.000336817,-0.00243223,0.000834705,1.48217,-0.0836441,9.75209,-0.0764961,-0.699649,1.69165,0.0793035,-0.712792,1.6828,-0.155888,-0.685547,1.90043,0.158488,-0.689921,1.88788,-0.00017098,-0.00164113,0.0128197,0.000928327,-0.00239222,0.0119371,-0.00241225,0.000506973,0.0135962,0.00120055,-0.00131626,0.0144649,0,0,0,0,0,0,0,0,0,0,0,0
186.891,-0.00692115,-0.150739,-0.0969568,-0.000292626,-0.00235335,0.000825567,1.48239,-0.0836194,9.7522,-0.0764962,-0.699651,1.69166,0.0793044,-0.712795,1.68281,-0.15589,-0.685547,1.90044,0.158489,-0.689922,1.88789,-0.000180737,-0.00146337,0.0125227,0.000899432,-0.00225316,0.0117559,-0.00238582,0.000714331,0.0130925,0.00114597,-0.00115377,0.014158,0,0,0,0,0,0,0,0,0,0,0,0
186.892,-0.00692152,-0.150741,-0.096956,-0.000249492,-0.00227893,0.000815973,1.48259,-0.0835071,9.75219,-0.0764964,-0.699652,1.69167,0.0793053,-0.712797,1.68282,-0.155893,-0.685546,1.90046,0.15849,-0.689923,1.8879,-0.000190847,-0.00128518,0.0122116,0.000869185,-0.00211563,0.0115681,-0.00236077,0.000913252,0.012598,0.00109207,-0.000999012,0.0138615,0,0,0,0,0,0,0,0,0,0,0,0
186.893,-0.00692185,-0.150743,-0.0969552,-0.00020773,-0.00220862,0.000805566,1.48279,-0.0833781,9.75215,-0.0764966,-0.699653,1.69168,0.0793061,-0.712799,1.68283,-0.155895,-0.685545,1.90047,0.158491,-0.689924,1.88792,-0.00020212,-0.00110878,0.0118929,0.000837186,-0.00197983,0.0113754,-0.00233735,0.00110262,0.0121179,0.00103795,-0.000849428,0.0135684,0,0,0,0,0,0,0,0,0,0,0,0
186.894,-0.00692214,-0.150745,-0.0969543,-0.000167623,-0.00214197,0.000792576,1.48297,-0.0832128,9.75208,-0.0764969,-0.699654,1.6917,0.0793069,-0.7128,1.68284,-0.155897,-0.685543,1.90048,0.158492,-0.689925,1.88793,-0.000215935,-0.000932104,0.0115611,0.000802072,-0.00184481,0.0111785,-0.0023152,0.00127942,0.0116612,0.000984158,-0.000702433,0.0132765,0,0,0,0,0,0,0,0,0,0,0,0
186.895,-0.0069224,-0.150747,-0.0969536,-0.000142474,-0.002072,0.000727036,1.4827,-0.0820569,9.75136,-0.0764971,-0.699655,1.69171,0.0793076,-0.712802,1.68285,-0.155899,-0.685542,1.90049,0.158493,-0.689925,1.88794,-0.000272239,-0.000682654,0.0110101,0.000721543,-0.0016847,0.010993,-0.00229844,0.00130187,0.0116989,0.000941686,-0.000495073,0.0129399,0,0,0,0,0,0,0,0,0,0,0,0
186.895,-0.0069224,-0.150747,-0.0969536,-0.000142474,-0.002072,0.000727036,1.4827,-0.0820569,9.75136,-0.0764971,-0.699655,1.69171,0.0793076,-0.712802,1.68285,-0.155899,-0.685542,1.90049,0.158493,-0.689925,1.88794,-0.000272239,-0.000682654,0.0110101,0.000721543,-0.0016847,0.010993,-0.00229844,0.00130187,0.0116989,0.000941686,-0.000495073,0.0129399,0,0,0,0,0,0,0,0,0,0,0,0
186.896,-0.00692261,-0.150749,-0.0969529,-0.000101621,-0.00200781,0.00071237,1.48326,-0.0829349,9.75187,-0.0764974,-0.699656,1.69172,0.0793083,-0.712804,1.68286,-0.155902,-0.685541,1.9005,0.158494,-0.689925,1.88796,-0.000292443,-0.000572907,0.0108489,0.000687889,-0.00155544,0.0108025,-0.00227368,0.00146244,0.0112957,0.000891173,-0.000351858,0.0126528,0,0,0,0,0,0,0,0,0,0,0,0
186.897,-0.00692278,-0.150751,-0.0969521,-5.80398e-05,-0.00194846,0.000697862,1.48345,-0.0828881,9.75202,-0.0764977,-0.699656,1.69173,0.079309,-0.712805,1.68287,-0.155904,-0.685539,1.90051,0.158495,-0.689926,1.88797,-0.000304084,-0.000421586,0.010562,0.000656896,-0.00142655,0.0106013,-0.00224583,0.00162111,0.010877,0.00084358,-0.000215553,0.0123695,0,0,0,0,0,0,0,0,0,0,0,0
186.898,-0.0069229,-0.150753,-0.0969514,-1.35278e-05,-0.00189312,0.00068562,1.48369,-0.0828503,9.75203,-0.076498,-0.699656,1.69174,0.0793096,-0.712806,1.68288,-0.155906,-0.685537,1.90052,0.158496,-0.689926,1.88798,-0.000311885,-0.000262143,0.0102434,0.000627481,-0.00130049,0.0103952,-0.00221594,0.00178817,0.0104039,0.000796329,-8.74984e-05,0.0120914,0,0,0,0,0,0,0,0,0,0,0,0
186.899,-0.00692297,-0.150755,-0.0969507,2.96094e-05,-0.00184167,0.000672797,1.48392,-0.0827245,9.75189,-0.0764984,-0.699656,1.69175,0.0793102,-0.712808,1.68289,-0.155908,-0.685535,1.90053,0.158496,-0.689926,1.88799,-0.000320393,-0.000101651,0.00990966,0.000596403,-0.00117608,0.0101838,-0.00218772,0.00194677,0.00994119,0.000748696,3.52433e-05,0.0118165,0,0,0,0,0,0,0,0,0,0,0,0
186.9,-0.006923,-0.150757,-0.0969501,7.1259e-05,-0.00179387,0.000659244,1.48415,-0.0825887,9.75171,-0.0764987,-0.699656,1.69176,0.0793108,-0.712809,1.6829,-0.155911,-0.685533,1.90054,0.158497,-0.689926,1.888,-0.000330193,5.65035e-05,0.00957042,0.000563595,-0.00105379,0.00996875,-0.00216134,0.00209601,0.00949327,0.00070071,0.000152999,0.011545,0,0,0,0,0,0,0,0,0,0,0,0
186.901,-0.00692299,-0.150758,-0.0969494,0.000111606,-0.00174956,0.000645103,1.48438,-0.0824526,9.75151,-0.076499,-0.699656,1.69177,0.0793113,-0.71281,1.68291,-0.155913,-0.685531,1.90055,0.158498,-0.689925,1.88802,-0.000341133,0.000211188,0.00922916,0.000529373,-0.000933774,0.00975057,-0.00213659,0.00223641,0.00905933,0.000652512,0.000265744,0.011277,0,0,0,0,0,0,0,0,0,0,0,0
186.902,-0.00692294,-0.15076,-0.0969487,0.000150839,-0.00170858,0.000630389,1.48461,-0.0823151,9.7513,-0.0764994,-0.699656,1.69178,0.0793118,-0.71281,1.68292,-0.155915,-0.685529,1.90056,0.158498,-0.689925,1.88803,-0.000353021,0.000362424,0.00888619,0.000493957,-0.000816061,0.00952958,-0.00211319,0.00236831,0.00863875,0.000604295,0.000373603,0.0110125,0,0,0,0,0,0,0,0,0,0,0,0
186.903,-0.00692284,-0.150762,-0.0969481,0.000194221,-0.00166985,0.000622607,1.48495,-0.0823973,9.75133,-0.0764997,-0.699655,1.69178,0.0793123,-0.712811,1.68293,-0.155917,-0.685526,1.90057,0.158499,-0.689924,1.88804,-0.000358319,0.000509308,0.00854866,0.000473998,-0.000700778,0.00929354,-0.0020639,0.00255403,0.008097,0.000556959,0.000470314,0.0107512,0,0,0,0,0,0,0,0,0,0,0,0
186.904,-0.0069227,-0.150763,-0.0969475,0.000236245,-0.00163502,0.000616479,1.48526,-0.082326,9.75107,-0.0765001,-0.699655,1.69179,0.0793127,-0.712812,1.68294,-0.155919,-0.685523,1.90058,0.158499,-0.689924,1.88805,-0.000364015,0.000653371,0.00820603,0.000456575,-0.000591003,0.00905649,-0.00200954,0.00274842,0.00753246,0.000508795,0.000557389,0.0104995,0,0,0,0,0,0,0,0,0,0,0,0
186.904,-0.0069227,-0.150763,-0.0969475,0.000236245,-0.00163502,0.000616479,1.48526,-0.082326,9.75107,-0.0765001,-0.699655,1.69179,0.0793127,-0.712812,1.68294,-0.155919,-0.685523,1.90058,0.158499,-0.689924,1.88805,-0.000364015,0.000653371,0.00820603,0.000456575,-0.000591003,0.00905649,-0.00200954,0.00274842,0.00753246,0.000508795,0.000557389,0.0104995,0,0,0,0,0,0,0,0,0,0,0,0
186.905,-0.00692254,-0.150765,-0.0969469,0.000244396,-0.00160246,0.000540373,1.48476,-0.0805324,9.7493,-0.0765005,-0.699654,1.6918,0.0793131,-0.712812,1.68295,-0.155921,-0.685521,1.90058,0.1585,-0.689923,1.88806,-0.000433723,0.000858352,0.00765845,0.000339252,-0.000463065,0.00887605,-0.00206445,0.0025814,0.00788455,0.000464589,0.000713762,0.0102164,0,0,0,0,0,0,0,0,0,0,0,0
186.906,-0.00692234,-0.150767,-0.0969464,0.000282001,-0.00156831,0.000519028,1.48539,-0.081645,9.75032,-0.076501,-0.699653,1.69181,0.0793134,-0.712813,1.68296,-0.155923,-0.685518,1.90059,0.1585,-0.689922,1.88807,-0.000454859,0.000954628,0.0074344,0.000299779,-0.000346641,0.00864241,-0.00203977,0.00267565,0.00755811,0.000419932,0.000817922,0.00994707,0,0,0,0,0,0,0,0,0,0,0,0
186.907,-0.00692209,-0.150768,-0.0969459,0.000324798,-0.00153877,0.000505705,1.48567,-0.0817441,9.75032,-0.0765015,-0.699652,1.69182,0.0793136,-0.712813,1.68297,-0.155925,-0.685515,1.9006,0.158501,-0.689921,1.88808,-0.000462291,0.00106967,0.00715092,0.000270666,-0.000242707,0.00841869,-0.00201034,0.00279224,0.00713641,0.000378612,0.000902547,0.00970262,0,0,0,0,0,0,0,0,0,0,0,0
186.908,-0.0069218,-0.15077,-0.0969453,0.000368168,-0.00151232,0.000492698,1.48594,-0.0816617,9.75014,-0.0765019,-0.69965,1.69182,0.0793139,-0.712813,1.68298,-0.155927,-0.685512,1.90061,0.158501,-0.68992,1.88809,-0.000466942,0.00120123,0.00681239,0.000243816,-0.000139566,0.00818696,-0.00197485,0.00291605,0.00668734,0.000338133,0.000981912,0.00946005,0,0,0,0,0,0,0,0,0,0,0,0
186.909,-0.00692146,-0.150771,-0.0969448,0.000414607,-0.00148782,0.000485324,1.4863,-0.0817222,9.75004,-0.0765024,-0.699649,1.69183,0.0793141,-0.712813,1.68298,-0.155929,-0.685509,1.90061,0.158501,-0.689919,1.8881,-0.000466602,0.00133385,0.00646396,0.000231266,-3.86062e-05,0.00794117,-0.00191274,0.00309249,0.0061264,0.000298192,0.00105136,0.0092204,0,0,0,0,0,0,0,0,0,0,0,0
186.91,-0.00692109,-0.150773,-0.0969444,0.000432059,-0.00146501,0.000417991,1.48595,-0.0801941,9.74842,-0.0765029,-0.699648,1.69183,0.0793142,-0.712813,1.68299,-0.155931,-0.685506,1.90062,0.158502,-0.689918,1.88811,-0.000521667,0.00152166,0.00593126,0.000135314,7.62597e-05,0.0077466,-0.00193727,0.00297308,0.00632054,0.000262153,0.00117929,0.00895618,0,0,0,0,0,0,0,0,0,0,0,0
186.91,-0.00692109,-0.150773,-0.0969444,0.000432059,-0.00146501,0.000417991,1.48595,-0.0801941,9.74842,-0.0765029,-0.699648,1.69183,0.0793142,-0.712813,1.68299,-0.155931,-0.685506,1.90062,0.158502,-0.689918,1.88811,-0.000521667,0.00152166,0.00593126,0.000135314,7.62597e-05,0.0077466,-0.00193727,0.00297308,0.00632054,0.000262153,0.00117929,0.00895618,0,0,0,0,0,0,0,0,0,0,0,0
186.911,-0.00692068,-0.150774,-0.096944,0.000471784,-0.0014427,0.000399461,1.48655,-0.0811177,9.74905,-0.0765034,-0.699646,1.69184,0.0793144,-0.712813,1.683,-0.155933,-0.685503,1.90062,0.158502,-0.689917,1.88811,-0.00053645,0.00160212,0.00570996,0.00010149,0.000176406,0.00751351,-0.00190933,0.00305458,0.00597952,0.000222658,0.0012564,0.00871304,0,0,0,0,0,0,0,0,0,0,0,0
186.912,-0.00692023,-0.150775,-0.0969436,0.000515128,-0.00142436,0.000386039,1.48683,-0.081151,9.74895,-0.076504,-0.699644,1.69185,0.0793144,-0.712812,1.68301,-0.155935,-0.6855,1.90063,0.158502,-0.689916,1.88812,-0.000540584,0.00170793,0.00541125,7.43674e-05,0.000268322,0.00728473,-0.00187757,0.00315224,0.00556162,0.000185747,0.00131935,0.00848662,0,0,0,0,0,0,0,0,0,0,0,0
186.913,-0.00691973,-0.150777,-0.0969432,0.000561467,-0.00140795,0.000376786,1.48717,-0.0811806,9.74881,-0.0765045,-0.699642,1.69185,0.0793145,-0.712812,1.68301,-0.155936,-0.685497,1.90063,0.158502,-0.689914,1.88813,-0.000539054,0.00182699,0.00506955,5.89973e-05,0.000359522,0.0070415,-0.00182288,0.00329389,0.00504448,0.000149847,0.0013744,0.00826114,0,0,0,0,0,0,0,0,0,0,0,0
186.914,-0.00691918,-0.150778,-0.0969428,0.000607027,-0.00139453,0.000371103,1.48754,-0.0811553,9.74846,-0.0765051,-0.699641,1.69186,0.0793145,-0.712812,1.68302,-0.155938,-0.685493,1.90064,0.158502,-0.689913,1.88814,-0.000536753,0.00194287,0.00472589,4.9691e-05,0.000445282,0.00679487,-0.00175756,0.00345857,0.00447749,0.000112539,0.00141886,0.00804468,0,0,0,0,0,0,0,0,0,0,0,0
186.915,-0.0069186,-0.15078,-0.0969425,0.000619281,-0.00138416,0.000302852,1.48713,-0.079493,9.7466,-0.0765057,-0.699638,1.69186,0.0793145,-0.712811,1.68303,-0.15594,-0.68549,1.90064,0.158502,-0.689911,1.88815,-0.000593817,0.00210918,0.00420796,-5.61628e-05,0.000544039,0.00660728,-0.00180614,0.00328034,0.00474806,7.64673e-05,0.00152319,0.00780517,0,0,0,0,0,0,0,0,0,0,0,0
186.916,-0.00691799,-0.150781,-0.0969422,0.000657595,-0.00137165,0.000282756,1.48774,-0.080452,9.74735,-0.0765063,-0.699636,1.69186,0.0793144,-0.71281,1.68303,-0.155942,-0.685487,1.90065,0.158502,-0.68991,1.88815,-0.000608132,0.00218148,0.00397006,-9.07902e-05,0.000634837,0.00636661,-0.0017784,0.003337,0.0044346,3.98696e-05,0.00158243,0.0075749,0,0,0,0,0,0,0,0,0,0,0,0
186.917,-0.00691733,-0.150782,-0.0969419,0.000703966,-0.00136177,0.000274787,1.48812,-0.0806787,9.74735,-0.0765069,-0.699634,1.69187,0.0793143,-0.71281,1.68304,-0.155943,-0.685483,1.90065,0.158502,-0.689908,1.88816,-0.00060575,0.00227148,0.00368031,-0.000103367,0.000714264,0.00612693,-0.00172323,0.00346384,0.0039343,6.76921e-06,0.00162072,0.00736542,0,0,0,0,0,0,0,0,0,0,0,0
186.918,-0.00691662,-0.150784,-0.0969416,0.000751023,-0.00135466,0.000271025,1.4885,-0.0806948,9.74706,-0.0765075,-0.699632,1.69187,0.0793142,-0.712809,1.68304,-0.155945,-0.68548,1.90066,0.158502,-0.689906,1.88817,-0.000599634,0.00237359,0.00334824,-0.000107329,0.000789483,0.00588012,-0.00165188,0.00362616,0.00334904,-2.68336e-05,0.00164826,0.00716392,0,0,0,0,0,0,0,0,0,0,0,0
186.918,-0.00691662,-0.150784,-0.0969416,0.000751023,-0.00135466,0.000271025,1.4885,-0.0806948,9.74706,-0.0765075,-0.699632,1.69187,0.0793142,-0.712809,1.68304,-0.155945,-0.68548,1.90066,0.158502,-0.689906,1.88817,-0.000599634,0.00237359,0.00334824,-0.000107329,0.000789483,0.00588012,-0.00165188,0.00362616,0.00334904,-2.68336e-05,0.00164826,0.00716392,0,0,0,0,0,0,0,0,0,0,0,0
186.919,-0.00691589,-0.150785,-0.0969414,0.000763608,-0.00135129,0.000205752,1.48811,-0.0790304,9.74511,-0.0765081,-0.699629,1.69187,0.079314,-0.712808,1.68305,-0.155947,-0.685476,1.90066,0.158502,-0.689905,1.88818,-0.000652823,0.00252403,0.00284698,-0.000210563,0.00087566,0.00569613,-0.00170286,0.00343725,0.00360532,-6.0698e-05,0.00173353,0.0069421,0,0,0,0,0,0,0,0,0,0,0,0
186.92,-0.00691512,-0.150786,-0.0969412,0.000803317,-0.00134474,0.00018802,1.48873,-0.0800047,9.74587,-0.0765088,-0.699626,1.69188,0.0793137,-0.712807,1.68306,-0.155949,-0.685473,1.90066,0.158502,-0.689903,1.88818,-0.000662941,0.00258875,0.00260426,-0.000238469,0.000956839,0.00545212,-0.00166544,0.00349972,0.00325879,-9.38286e-05,0.00177535,0.00672748,0,0,0,0,0,0,0,0,0,0,0,0
186.921,-0.0069143,-0.150788,-0.096941,0.000851361,-0.0013405,0.000184522,1.48917,-0.0802838,9.74585,-0.0765094,-0.699624,1.69188,0.0793135,-0.712806,1.68306,-0.15595,-0.685469,1.90067,0.158502,-0.689901,1.88819,-0.000655792,0.00266741,0.00232066,-0.000240473,0.00102501,0.00520929,-0.00159439,0.00364811,0.00269568,-0.000124461,0.00179454,0.00653283,0,0,0,0,0,0,0,0,0,0,0,0
186.922,-0.00691345,-0.150789,-0.0969409,0.000870388,-0.00133947,0.000126865,1.48888,-0.0788457,9.74414,-0.0765101,-0.699621,1.69188,0.0793132,-0.712805,1.68307,-0.155952,-0.685465,1.90067,0.158502,-0.689899,1.8882,-0.000698683,0.00280502,0.00184342,-0.000326738,0.00110295,0.00502035,-0.00162253,0.00350282,0.00283476,-0.000153552,0.00186329,0.0063238,0,0,0,0,0,0,0,0,0,0,0,0
186.923,-0.00691255,-0.15079,-0.0969408,0.000911336,-0.00133672,0.000111971,1.48947,-0.0796805,9.74465,-0.0765108,-0.699618,1.69188,0.0793128,-0.712804,1.68307,-0.155953,-0.685462,1.90067,0.158502,-0.689897,1.8882,-0.000704647,0.00286143,0.00160667,-0.000349566,0.00117358,0.00478303,-0.00158145,0.00356726,0.00246386,-0.00018437,0.00189155,0.00612231,0,0,0,0,0,0,0,0,0,0,0,0
186.924,-0.00691161,-0.150792,-0.0969406,0.000959736,-0.00133606,0.000110122,1.48991,-0.0799333,9.74458,-0.0765115,-0.699615,1.69188,0.0793125,-0.712803,1.68308,-0.155955,-0.685458,1.90067,0.158502,-0.689896,1.88821,-0.00069497,0.00293404,0.00132253,-0.000347887,0.00123378,0.00454206,-0.00150639,0.00371598,0.00188516,-0.000212863,0.00189844,0.00594043,0,0,0,0,0,0,0,0,0,0,0,0
186.925,-0.00691064,-0.150793,-0.0969406,0.000979107,-0.00133882,5.65901e-05,1.48965,-0.078536,9.74284,-0.0765123,-0.699612,1.69188,0.079312,-0.712801,1.68308,-0.155956,-0.685455,1.90067,0.158501,-0.689894,1.88821,-0.000734279,0.00305983,0.000860863,-0.000428879,0.00130218,0.004355,-0.00153107,0.00357727,0.00198971,-0.000241214,0.00195232,0.00574469,0,0,0,0,0,0,0,0,0,0,0,0
186.926,-0.00690963,-0.150794,-0.0969405,0.00102026,-0.0013395,4.49809e-05,1.49026,-0.0793649,9.74334,-0.076513,-0.699609,1.69188,0.0793116,-0.7128,1.68308,-0.155958,-0.685451,1.90068,0.158501,-0.689892,1.88822,-0.00073734,0.00310947,0.000625712,-0.00044542,0.00136446,0.00411721,-0.00148161,0.00365373,0.00158231,-0.000270922,0.00196661,0.00555617,0,0,0,0,0,0,0,0,0,0,0,0
186.926,-0.00690963,-0.150794,-0.0969405,0.00102026,-0.0013395,4.49809e-05,1.49026,-0.0793649,9.74334,-0.076513,-0.699609,1.69188,0.0793116,-0.7128,1.68308,-0.155958,-0.685451,1.90068,0.158501,-0.689892,1.88822,-0.00073734,0.00310947,0.000625712,-0.00044542,0.00136446,0.00411721,-0.00148161,0.00365373,0.00158231,-0.000270922,0.00196661,0.00555617,0,0,0,0,0,0,0,0,0,0,0,0
186.927,-0.00690859,-0.150796,-0.0969405,0.00104484,-0.00134186,-3.11952e-06,1.49014,-0.0784037,9.74213,-0.0765138,-0.699606,1.69188,0.0793111,-0.712798,1.68309,-0.155959,-0.685447,1.90068,0.158501,-0.68989,1.88822,-0.000769936,0.0032182,0.000208083,-0.000513388,0.0014296,0.00392445,-0.00148815,0.00354955,0.00160449,-0.00029596,0.00201287,0.00536277,0,0,0,0,0,0,0,0,0,0,0,0
186.928,-0.0069075,-0.150797,-0.0969405,0.00108739,-0.00134385,-1.29906e-05,1.49071,-0.0791283,9.74244,-0.0765145,-0.699603,1.69188,0.0793105,-0.712797,1.68309,-0.155961,-0.685444,1.90068,0.1585,-0.689888,1.88823,-0.00076976,0.00325911,-1.09093e-05,-0.000527126,0.00148419,0.00369657,-0.00143934,0.00362192,0.00119197,-0.000323219,0.00201928,0.00518467,0,0,0,0,0,0,0,0,0,0,0,0
186.929,-0.00690636,-0.150798,-0.0969405,0.00113573,-0.00134784,-1.13796e-05,1.49116,-0.0793398,9.74228,-0.0765153,-0.699599,1.69188,0.07931,-0.712795,1.6831,-0.155962,-0.68544,1.90068,0.1585,-0.689886,1.88823,-0.000756291,0.00331956,-0.000287228,-0.00051918,0.00153052,0.00346181,-0.0013586,0.0037729,0.000588651,-0.000349314,0.00200681,0.00502229,0,0,0,0,0,0,0,0,0,0,0,0
186.93,-0.0069052,-0.1508,-0.0969406,0.00115695,-0.00135514,-5.54192e-05,1.49098,-0.0780796,9.74061,-0.0765161,-0.699596,1.69188,0.0793094,-0.712794,1.6831,-0.155963,-0.685436,1.90068,0.1585,-0.689884,1.88824,-0.00078764,0.00342678,-0.000721292,-0.000585559,0.00158342,0.00327516,-0.00136759,0.0036693,0.000589692,-0.000376929,0.00203588,0.00484557,0,0,0,0,0,0,0,0,0,0,0,0
186.931,-0.00690399,-0.150801,-0.0969406,0.00119523,-0.00136113,-6.37725e-05,1.49155,-0.0787463,9.74084,-0.0765169,-0.699592,1.69188,0.0793088,-0.712792,1.6831,-0.155965,-0.685433,1.90068,0.158499,-0.689882,1.88824,-0.000789647,0.00346479,-0.000952755,-0.000598675,0.00163028,0.00304592,-0.00131689,0.00374264,0.00017252,-0.000406143,0.00202841,0.00468275,0,0,0,0,0,0,0,0,0,0,0,0
186.932,-0.00690276,-0.150803,-0.0969407,0.00121662,-0.001369,-0.000105539,1.49146,-0.077819,9.7396,-0.0765177,-0.699589,1.69188,0.0793082,-0.712791,1.6831,-0.155966,-0.685429,1.90068,0.158499,-0.689879,1.88825,-0.000820109,0.00355288,-0.00134131,-0.000662104,0.00167933,0.00285908,-0.00132484,0.00363968,0.000169354,-0.000433583,0.00205189,0.00450836,0,0,0,0,0,0,0,0,0,0,0,0
186.933,-0.00690151,-0.150804,-0.0969409,0.00123654,-0.00137528,-0.000153503,1.49154,-0.0774895,9.73897,-0.0765186,-0.699585,1.69188,0.0793074,-0.712789,1.68311,-0.155967,-0.685425,1.90068,0.158498,-0.689877,1.88825,-0.000856432,0.00362189,-0.00167866,-0.000734439,0.00173245,0.00267381,-0.00134554,0.00349574,0.000265806,-0.000458281,0.00208233,0.0043328,0,0,0,0,0,0,0,0,0,0,0,0
186.934,-0.0069002,-0.150805,-0.096941,0.00128264,-0.00139101,-0.000136769,1.4918,-0.0785417,9.73942,-0.0765194,-0.699582,1.69188,0.0793067,-0.712787,1.68311,-0.155969,-0.685422,1.90068,0.158498,-0.689875,1.88826,-0.000838459,0.0036184,-0.00181405,-0.000710859,0.00176535,0.00241559,-0.00124944,0.00369301,-0.000476708,-0.000488465,0.00203361,0.00419636,0,0,0,0,0,0,0,0,0,0,0,0
186.934,-0.0069002,-0.150805,-0.096941,0.00128264,-0.00139101,-0.000136769,1.4918,-0.0785417,9.73942,-0.0765194,-0.699582,1.69188,0.0793067,-0.712787,1.68311,-0.155969,-0.685422,1.90068,0.158498,-0.689875,1.88826,-0.000838459,0.0036184,-0.00181405,-0.000710859,0.00176535,0.00241559,-0.00124944,0.00369301,-0.000476708,-0.000488465,0.00203361,0.00419636,0,0,0,0,0,0,0,0,0,0,0,0
186.935,-0.00689888,-0.150807,-0.0969412,0.00129688,-0.00141827,-0.00016705,1.49125,-0.077046,9.7374,-0.0765203,-0.699578,1.69188,0.079306,-0.712785,1.68311,-0.15597,-0.685418,1.90068,0.158497,-0.689873,1.88826,-0.000866185,0.00369671,-0.00222021,-0.000764772,0.00179787,0.00221015,-0.00124199,0.00363632,-0.000634867,-0.000522739,0.0020189,0.00405163,0,0,0,0,0,0,0,0,0,0,0,0
186.936,-0.00689755,-0.150808,-0.0969413,0.00130847,-0.00144834,-0.000194171,1.49126,-0.0767676,9.73662,-0.0765212,-0.699574,1.69187,0.0793051,-0.712783,1.68311,-0.155971,-0.685415,1.90068,0.158497,-0.689871,1.88826,-0.000896943,0.00373679,-0.00252978,-0.000818993,0.00183223,0.00198843,-0.00123873,0.00357577,-0.000783314,-0.000559534,0.00199661,0.0039131,0,0,0,0,0,0,0,0,0,0,0,0
186.937,-0.0068962,-0.15081,-0.0969416,0.0013186,-0.00148167,-0.00022164,1.49121,-0.076444,9.73588,-0.0765221,-0.69957,1.69187,0.0793043,-0.712782,1.68312,-0.155972,-0.685411,1.90068,0.158496,-0.689869,1.88827,-0.000928591,0.00377251,-0.00283615,-0.000873827,0.00186424,0.00176578,-0.00123529,0.0035119,-0.000933576,-0.000595779,0.00196995,0.00377935,0,0,0,0,0,0,0,0,0,0,0,0
186.938,-0.00689483,-0.150811,-0.0969418,0.00132767,-0.00151779,-0.000249389,1.49117,-0.076132,9.73516,-0.0765231,-0.699567,1.69187,0.0793033,-0.71278,1.68312,-0.155974,-0.685408,1.90068,0.158496,-0.689867,1.88827,-0.000960713,0.00380415,-0.00313903,-0.000928858,0.00189398,0.00154275,-0.00123148,0.00344502,-0.0010849,-0.000631207,0.00193925,0.00365044,0,0,0,0,0,0,0,0,0,0,0,0
186.939,-0.00689346,-0.150813,-0.0969421,0.00133483,-0.00155693,-0.000279801,1.49106,-0.0757511,9.73438,-0.076524,-0.699563,1.69186,0.0793024,-0.712778,1.68312,-0.155975,-0.685404,1.90068,0.158495,-0.689865,1.88828,-0.00099543,0.00383692,-0.00345367,-0.000986191,0.00192526,0.00131337,-0.00122441,0.00337995,-0.00126011,-0.000665313,0.00190775,0.00352252,0,0,0,0,0,0,0,0,0,0,0,0
186.94,-0.00689207,-0.150814,-0.0969424,0.00134521,-0.0015954,-0.000302128,1.49136,-0.0757311,9.73386,-0.0765251,-0.699559,1.69186,0.0793013,-0.712776,1.68312,-0.155976,-0.685401,1.90067,0.158494,-0.689864,1.88828,-0.00102204,0.00384265,-0.00369364,-0.00103448,0.0019501,0.00108814,-0.00122644,0.00329426,-0.00134409,-0.000699266,0.00186352,0.00341108,0,0,0,0,0,0,0,0,0,0,0,0
186.941,-0.00689066,-0.150816,-0.0969427,0.00135856,-0.00163202,-0.000327273,1.49147,-0.0755396,9.73343,-0.0765261,-0.699555,1.69186,0.0793002,-0.712774,1.68312,-0.155977,-0.685398,1.90067,0.158493,-0.689862,1.88828,-0.00104551,0.0038698,-0.00398939,-0.00108074,0.0019768,0.000865028,-0.00122106,0.00321434,-0.00145137,-0.000728106,0.00182384,0.0032966,0,0,0,0,0,0,0,0,0,0,0,0
186.942,-0.00688923,-0.150818,-0.096943,0.00137359,-0.00166683,-0.000353429,1.4916,-0.0753579,9.73289,-0.0765272,-0.699551,1.69185,0.0792991,-0.712772,1.68312,-0.155979,-0.685395,1.90067,0.158493,-0.68986,1.88829,-0.00106787,0.00389642,-0.00428149,-0.001125,0.00200507,0.000641823,-0.00121104,0.00314015,-0.00157763,-0.000753922,0.00178607,0.00318215,0,0,0,0,0,0,0,0,0,0,0,0
186.942,-0.00688923,-0.150818,-0.096943,0.00137359,-0.00166683,-0.000353429,1.4916,-0.0753579,9.73289,-0.0765272,-0.699551,1.69185,0.0792991,-0.712772,1.68312,-0.155979,-0.685395,1.90067,0.158493,-0.68986,1.88829,-0.00106787,0.00389642,-0.00428149,-0.001125,0.00200507,0.000641823,-0.00121104,0.00314015,-0.00157763,-0.000753922,0.00178607,0.00318215,0,0,0,0,0,0,0,0,0,0,0,0
186.943,-0.00688779,-0.150819,-0.0969434,0.00138937,-0.00170026,-0.000381787,1.49172,-0.0751362,9.73231,-0.0765283,-0.699547,1.69185,0.079298,-0.71277,1.68312,-0.15598,-0.685391,1.90067,0.158492,-0.689858,1.88829,-0.00109069,0.00392424,-0.00457651,-0.00116811,0.0020463,0.000388164,-0.00119578,0.003072,-0.00172834,-0.000776924,0.00175099,0.00306743,0,0,0,0,0,0,0,0,0,0,0,0
186.944,-0.00688632,-0.150821,-0.0969438,0.00140485,-0.00173248,-0.000414293,1.49182,-0.0748634,9.73165,-0.0765294,-0.699543,1.69184,0.0792967,-0.712768,1.68312,-0.155981,-0.685388,1.90067,0.158491,-0.689857,1.88829,-0.00111574,0.00395253,-0.00487396,-0.00121698,0.00211565,7.68367e-05,-0.00117376,0.00301024,-0.00190694,-0.000797055,0.00172022,0.00295277,0,0,0,0,0,0,0,0,0,0,0,0
186.945,-0.00688483,-0.150823,-0.0969442,0.001426,-0.00176063,-0.000438053,1.49228,-0.0749956,9.7312,-0.0765305,-0.699539,1.69184,0.0792955,-0.712766,1.68312,-0.155982,-0.685386,1.90067,0.15849,-0.689855,1.88829,-0.00113079,0.00395401,-0.00508897,-0.00125723,0.00213233,-0.000105166,-0.00115874,0.00293591,-0.00200988,-0.000815617,0.00168165,0.00284618,0,0,0,0,0,0,0,0,0,0,0,0
186.946,-0.00688331,-0.150825,-0.0969447,0.00145818,-0.00177973,-0.000453178,1.49294,-0.0753369,9.73115,-0.0765316,-0.699535,1.69183,0.0792942,-0.712763,1.68312,-0.155983,-0.685383,1.90066,0.158489,-0.689853,1.8883,-0.00113116,0.0039621,-0.00530126,-0.00126522,0.00208265,-0.000149148,-0.00114533,0.00286208,-0.0020796,-0.000828667,0.00164166,0.00273807,0,0,0,0,0,0,0,0,0,0,0,0
186.947,-0.00688175,-0.150826,-0.0969452,0.00147941,-0.00175734,-0.000487632,1.49029,-0.0745269,9.7285,-0.0765328,-0.699531,1.69183,0.0792929,-0.712761,1.68312,-0.155984,-0.68538,1.90066,0.158489,-0.689852,1.8883,-0.00114847,0.00404478,-0.00559982,-0.0013311,0.00221723,-0.000443619,-0.00110696,0.00288048,-0.00231308,-0.000842237,0.00168342,0.00259178,0,0,0,0,0,0,0,0,0,0,0,0
186.948,-0.0068802,-0.150828,-0.0969457,0.00148437,-0.00165286,-0.000490547,1.48318,-0.073761,9.72069,-0.076534,-0.699527,1.69182,0.0792915,-0.712759,1.68312,-0.155985,-0.685377,1.90066,0.158488,-0.68985,1.8883,-0.00117166,0.00412143,-0.00560782,-0.00135346,0.00227229,-0.0004023,-0.00110888,0.00302408,-0.00253804,-0.000884479,0.00182132,0.00239858,0,0,0,0,0,0,0,0,0,0,0,0
186.949,-0.00687864,-0.15083,-0.0969461,0.00148842,-0.00156145,-0.000495263,1.48364,-0.073453,9.72028,-0.0765352,-0.699523,1.69182,0.0792902,-0.712757,1.68312,-0.155987,-0.685374,1.90066,0.158487,-0.689848,1.8883,-0.00119428,0.00419515,-0.00564656,-0.00137677,0.00232335,-0.000381671,-0.00111119,0.00314439,-0.0027409,-0.000924603,0.0019408,0.00222065,0,0,0,0,0,0,0,0,0,0,0,0
186.949,-0.00687864,-0.15083,-0.0969461,0.00148842,-0.00156145,-0.000495263,1.48364,-0.073453,9.72028,-0.0765352,-0.699523,1.69182,0.0792902,-0.712757,1.68312,-0.155987,-0.685374,1.90066,0.158487,-0.689848,1.8883,-0.00119428,0.00419515,-0.00564656,-0.00137677,0.00232335,-0.000381671,-0.00111119,0.00314439,-0.0027409,-0.000924603,0.0019408,0.00222065,0,0,0,0,0,0,0,0,0,0,0,0
